; G-Code generated by Simplify3D(R) Version 4.0.1
; Jun 29, 2018 at 8:49:58 PM
; Settings Summary
;   processName,Process1
;   applyToModels,bracket
;   profileName,Qidi Technology Qidi Tech I
;   profileVersion,2016-08-03 08:00:00
;   baseProfile,
;   printMaterial,PLA
;   printQuality,Medium
;   printExtruders,Both Extruders
;   extruderName,Right Extruder,Left Extruder
;   extruderToolheadNumber,0,1
;   extruderDiameter,0.4,0.4
;   extruderAutoWidth,0,0
;   extruderWidth,0.4,0.4
;   extrusionMultiplier,0.9,0.9
;   extruderUseRetract,1,1
;   extruderRetractionDistance,1,1
;   extruderExtraRestartDistance,0,0
;   extruderRetractionZLift,0,0
;   extruderRetractionSpeed,1200,1200
;   extruderUseCoasting,0,0
;   extruderCoastingDistance,0.2,0.2
;   extruderUseWipe,0,0
;   extruderWipeDistance,5,5
;   primaryExtruder,1
;   layerHeight,0.2
;   topSolidLayers,3
;   bottomSolidLayers,3
;   perimeterOutlines,2
;   printPerimetersInsideOut,1
;   startPointOption,2
;   startPointOriginX,0
;   startPointOriginY,0
;   sequentialIslands,0
;   spiralVaseMode,0
;   firstLayerHeightPercentage,90
;   firstLayerWidthPercentage,100
;   firstLayerUnderspeed,0.5
;   useRaft,0
;   raftExtruder,0
;   raftTopLayers,3
;   raftBaseLayers,2
;   raftOffset,3
;   raftSeparationDistance,0.14
;   raftTopInfill,100
;   aboveRaftSpeedMultiplier,0.3
;   useSkirt,0
;   skirtExtruder,0
;   skirtLayers,1
;   skirtOutlines,2
;   skirtOffset,4
;   usePrimePillar,0
;   primePillarExtruder,999
;   primePillarWidth,12
;   primePillarLocation,7
;   primePillarSpeedMultiplier,1
;   useOozeShield,1
;   oozeShieldExtruder,999
;   oozeShieldOffset,2
;   oozeShieldOutlines,1
;   oozeShieldSidewallShape,1
;   oozeShieldSidewallAngle,30
;   oozeShieldSpeedMultiplier,1
;   infillExtruder,0
;   internalInfillPattern,Rectilinear
;   externalInfillPattern,Rectilinear
;   infillPercentage,20
;   outlineOverlapPercentage,20
;   infillExtrusionWidthPercentage,100
;   minInfillLength,5
;   infillLayerInterval,1
;   internalInfillAngles,45,-45
;   overlapInternalInfillAngles,0
;   externalInfillAngles,45,-45
;   generateSupport,1
;   supportExtruder,0
;   supportInfillPercentage,30
;   supportExtraInflation,0
;   supportBaseLayers,0
;   denseSupportExtruder,0
;   denseSupportLayers,0
;   denseSupportInfillPercentage,70
;   supportLayerInterval,1
;   supportHorizontalPartOffset,0.3
;   supportUpperSeparationLayers,1
;   supportLowerSeparationLayers,1
;   supportType,0
;   supportGridSpacing,4
;   maxOverhangAngle,45
;   supportAngles,0
;   temperatureName,Right Extruder,Left Extruder,Heated Build Platform
;   temperatureNumber,0,1,0
;   temperatureSetpointCount,1,1,1
;   temperatureSetpointLayers,1,1,1
;   temperatureSetpointTemperatures,215,215,60
;   temperatureStabilizeAtStartup,0,0,0
;   temperatureHeatedBed,0,0,1
;   temperatureRelayBetweenLayers,0,0,0
;   temperatureRelayBetweenLoops,0,0,0
;   fanLayers,1,2
;   fanSpeeds,0,100
;   blipFanToFullPower,0
;   adjustSpeedForCooling,1
;   minSpeedLayerTime,15
;   minCoolingSpeedSlowdown,20
;   increaseFanForCooling,0
;   minFanLayerTime,45
;   maxCoolingFanSpeed,100
;   increaseFanForBridging,1
;   bridgingFanSpeed,100
;   use5D,1
;   relativeEdistances,1
;   allowEaxisZeroing,0
;   independentExtruderAxes,1
;   includeM10123,0
;   stickySupport,1
;   applyToolheadOffsets,0
;   gcodeXoffset,0
;   gcodeYoffset,0
;   gcodeZoffset,0
;   overrideMachineDefinition,1
;   machineTypeOverride,0
;   strokeXoverride,225
;   strokeYoverride,145
;   strokeZoverride,150
;   originOffsetXoverride,112.5
;   originOffsetYoverride,72.5
;   originOffsetZoverride,0
;   homeXdirOverride,1
;   homeYdirOverride,1
;   homeZdirOverride,-1
;   flipXoverride,1
;   flipYoverride,-1
;   flipZoverride,1
;   toolheadOffsets,0,0|34,0|0,0|0,0|0,0|0,0
;   overrideFirmwareConfiguration,1
;   firmwareTypeOverride,MakerBot/Sailfish Firmware
;   GPXconfigOverride,r1d
;   baudRateOverride,115200
;   overridePrinterModels,1
;   printerModelsOverride,MakerBot_Replicator1.stl
;   startingGcode,M73 P0 ; Enable build progress,G162 X Y F3000 ; Home XY maximum,G161 Z F1200 ; Home Z minimum,G92 X0 Y0 Z-5 A0 B0 ; Set Z to -5,G1 Z0 ; Move Z to 0,G161 Z F100 ; Home Z slowly,M132 X Y Z ; Recall home offsets,M135 T0 ; Load right extruder offsets,G1 X-110 Y-70 Z30 F9000 ; Move to wait position off table,G130 X20 Y20 Z20 A20 B20 ; Lower stepper Vrefs while heating,M126 S[fan_speed_pwm] ; Set fan speed,M140 S[bed0_temperature] T0 ; Heat buildplate ,M104 S[extruder0_temperature] T0 ; Heat right extruder,M104 S[extruder1_temperature] T1 ; Heat left extruder,M134 T0 ; Stabilize bed temperature,M133 T0 ; Stabilize right extruder temperature,M133 T1 ; Stabilize left extruder temperature,G130 X127 Y127 Z40 A127 B127 ; Default stepper Vrefs,G92 A0 B0 ; Zero extruders,G1 X100 Y-70 F9000 ; Move to front right corner of bed,G1 Z0.3 F6000 ; Move down to purge,G1 X-90 Y-70 E24 F2000 ; Extrude a line of filament across the front edge of the bed,G1 X-100 Y-70 F180 ; Wait for ooze,G1 X-110 Y-70 F5000 ; Fast wipe,G1 Z0.5 F100 ; Lift,G92 A0 B0 ; Zero extruders,M135 T1 ; Load left extruder offsets,G1 X-100 Y-68 F9000 ; Move to front left corner of bed,G1 Z0.3 F6000 ; Move down to purge,G1 X90 Y-68 E24 F2000 ; Extrude a line of filament across the front edge of the bed,G1 X100 Y-68 F180 ; Wait for ooze,G1 X110 Y-68 F5000 ; Fast wipe,G1 Z1 F100 ; Lift,G92 A0 B0 ; Zero extruders,M73 P1 ; @body (notify GPX body has started)
;   layerChangeGcode,
;   retractionGcode,
;   toolChangeGcode,
;   endingGcode,M73 P100 ; end build progress,G1 Z150 F1000 ; send Z axis to bottom of machine,M140 S0 T0 ; cool down HBP,M104 S0 T0 ; cool down right extruder,M104 S0 T1 ; cool down left extruder,M127 ; stop blower fan,G162 X Y F3000 ; home XY maximum,M18 ; disable stepper,M72 P1 ; play Ta-Da song
;   exportFileFormat,x3g
;   celebration,0
;   celebrationSong,Random Song
;   postProcessing,
;   defaultSpeed,3600
;   outlineUnderspeed,0.5
;   solidInfillUnderspeed,0.8
;   supportUnderspeed,0.8
;   rapidXYspeed,4200
;   rapidZspeed,1200
;   minBridgingArea,50
;   bridgingExtraInflation,0
;   bridgingExtrusionMultiplier,1
;   bridgingSpeedMultiplier,0.8
;   useFixedBridgingAngle,0
;   fixedBridgingAngle,0
;   applyBridgingToPerimeters,0
;   filamentDiameters,1.75|1.75|1.75|1.75|1.75|1.75
;   filamentPricesPerKg,46|46|46|46|46|46
;   filamentDensities,1.25|1.25|1.25|1.25|1.25|1.25
;   useMinPrintHeight,0
;   minPrintHeight,0
;   useMaxPrintHeight,0
;   maxPrintHeight,0
;   useDiaphragm,0
;   diaphragmLayerInterval,20
;   robustSlicing,1
;   mergeAllIntoSolid,0
;   onlyRetractWhenCrossingOutline,1
;   retractBetweenLayers,1
;   useRetractionMinTravel,0
;   retractionMinTravel,3
;   retractWhileWiping,0
;   onlyWipeOutlines,1
;   avoidCrossingOutline,0
;   maxMovementDetourFactor,3
;   toolChangeRetractionDistance,12
;   toolChangeExtraRestartDistance,-0.5
;   toolChangeRetractionSpeed,600
;   externalThinWallType,0
;   internalThinWallType,2
;   thinWallAllowedOverlapPercentage,10
;   singleExtrusionMinLength,1
;   singleExtrusionMinPrintingWidthPercentage,50
;   singleExtrusionMaxPrintingWidthPercentage,200
;   singleExtrusionEndpointExtension,0.2
;   horizontalSizeCompensation,0
G90
M83
M73 P0 ; Enable build progress
G162 X Y F3000 ; Home XY maximum
G161 Z F1200 ; Home Z minimum
G92 X0 Y0 Z-5 A0 B0 ; Set Z to -5
G1 Z0 ; Move Z to 0
G161 Z F100 ; Home Z slowly
M132 X Y Z ; Recall home offsets
M135 T0 ; Load right extruder offsets
G1 X-110 Y-70 Z30 F9000 ; Move to wait position off table
G130 X20 Y20 Z20 A20 B20 ; Lower stepper Vrefs while heating
M127 ; Set fan speed
M140 S60 T0 ; Heat buildplate 
M104 S215 T0 ; Heat right extruder
M104 S215 T1 ; Heat left extruder
M134 T0 ; Stabilize bed temperature
M133 T0 ; Stabilize right extruder temperature
M133 T1 ; Stabilize left extruder temperature
G130 X127 Y127 Z40 A127 B127 ; Default stepper Vrefs
G92 A0 B0 ; Zero extruders
G1 X100 Y-70 F9000 ; Move to front right corner of bed
G1 Z0.3 F6000 ; Move down to purge
G1 X-90 Y-70 E24 F2000 ; Extrude a line of filament across the front edge of the bed
G1 X-100 Y-70 F180 ; Wait for ooze
G1 X-110 Y-70 F5000 ; Fast wipe
G1 Z0.5 F100 ; Lift
G92 A0 B0 ; Zero extruders
M135 T1 ; Load left extruder offsets
G1 X-100 Y-68 F9000 ; Move to front left corner of bed
G1 Z0.3 F6000 ; Move down to purge
G1 X90 Y-68 E24 F2000 ; Extrude a line of filament across the front edge of the bed
G1 X100 Y-68 F180 ; Wait for ooze
G1 X110 Y-68 F5000 ; Fast wipe
G1 Z1 F100 ; Lift
G92 A0 B0 ; Zero extruders
M73 P1 ; @body (notify GPX body has started)
G1 E-1.0000 F1200
G1 Z0.180 F1200
; process Process1
; layer 1, Z = 0.180
M135 T1
; tool H0.200 W0.400
; inner perimeter
G1 X-12.600 Y14.050 F4200
G1 E1.0000 F360
G1 X-12.600 Y24.600 E0.3158 F1350
G1 X9.600 Y24.600 E0.6645
G1 X9.600 Y21.600 E0.0898
G1 X20.400 Y21.600 E0.3233
G1 X20.400 Y22.400 E0.0239
G1 X10.400 Y22.400 E0.2993
G1 X10.400 Y25.400 E0.0898
G1 X0.751 Y25.400 E0.2888
G1 X-4.249 Y30.400 E0.2117
G1 X-13.751 Y30.400 E0.2845
G1 X-18.751 Y25.400 E0.2117
G1 X-20.400 Y25.400 E0.0493
G1 X-20.400 Y24.600 E0.0239
G1 X-13.400 Y24.600 E0.2095
G1 X-13.400 Y14.050 E0.3158
G1 X-12.600 Y14.050 E0.0239
; outer perimeter
G1 X-12.200 Y13.650 F4200
G1 X-12.200 Y24.200 E0.3158 F900
G1 X9.200 Y24.200 E0.6406
G1 X9.200 Y21.200 E0.0898
G1 X20.800 Y21.200 E0.3472
G1 X20.800 Y22.800 E0.0479
G1 X10.800 Y22.800 E0.2993
G1 X10.800 Y25.800 E0.0898
G1 X0.917 Y25.800 E0.2958
G1 X-4.083 Y30.800 E0.2117
G1 X-13.917 Y30.800 E0.2944
G1 X-18.917 Y25.800 E0.2117
G1 X-20.800 Y25.800 E0.0564
G1 X-20.800 Y24.200 E0.0479
G1 X-13.800 Y24.200 E0.2095
G1 X-13.800 Y13.650 E0.3158
G1 X-12.200 Y13.650 E0.0479
; solid layer
G1 X-13.080 Y14.639 F4200
G1 X-12.920 Y14.799 E0.0068 F1440
G1 X-12.920 Y15.364 E0.0169
G1 X-13.080 Y15.204 E0.0068
G1 X-13.080 Y15.770 E0.0169
G1 X-12.920 Y15.930 E0.0068
G1 X-12.920 Y16.496 E0.0169
G1 X-13.080 Y16.336 E0.0068
G1 X-13.080 Y16.901 E0.0169
G1 X-12.920 Y17.061 E0.0068
G1 X-12.920 Y17.627 E0.0169
G1 X-13.080 Y17.467 E0.0068
G1 X-13.080 Y18.033 E0.0169
G1 X-12.920 Y18.193 E0.0068
G1 X-12.920 Y18.758 E0.0169
G1 X-13.080 Y18.598 E0.0068
G1 X-13.080 Y19.164 E0.0169
G1 X-12.920 Y19.324 E0.0068
G1 X-12.920 Y19.890 E0.0169
G1 X-13.080 Y19.730 E0.0068
G1 X-13.080 Y20.295 E0.0169
G1 X-12.920 Y20.455 E0.0068
G1 X-12.920 Y21.021 E0.0169
G1 X-13.080 Y20.861 E0.0068
G1 X-13.080 Y21.427 E0.0169
G1 X-12.920 Y21.587 E0.0068
G1 X-12.920 Y22.152 E0.0169
G1 X-13.080 Y21.992 E0.0068
G1 X-13.080 Y22.558 E0.0169
G1 X-12.920 Y22.718 E0.0068
G1 X-12.920 Y23.284 E0.0169
G1 X-13.080 Y23.124 E0.0068
G1 X-13.080 Y23.690 E0.0169
G1 X-12.920 Y23.850 E0.0068
G1 X-12.920 Y24.415 E0.0169
G1 X-13.080 Y24.255 E0.0068
G1 X-13.080 Y24.821 E0.0169
G1 X-7.821 Y30.080 E0.2226
G1 X-7.255 Y30.080 E0.0169
G1 X-12.415 Y24.920 E0.2184
G1 X-11.850 Y24.920 E0.0169
G1 X-6.690 Y30.080 E0.2184
G1 X-6.124 Y30.080 E0.0169
G1 X-11.284 Y24.920 E0.2184
G1 X-10.718 Y24.920 E0.0169
G1 X-5.558 Y30.080 E0.2184
G1 X-4.992 Y30.080 E0.0169
G1 X-10.152 Y24.920 E0.2184
G1 X-9.587 Y24.920 E0.0169
G1 X-4.427 Y30.080 E0.2184
G1 X-4.381 Y30.080 E0.0014
G1 X-4.121 Y29.820 E0.0110
G1 X-9.021 Y24.920 E0.2074
G1 X-8.455 Y24.920 E0.0169
G1 X-3.838 Y29.537 E0.1955
G1 X-3.555 Y29.254 E0.0120
G1 X-7.890 Y24.920 E0.1835
G1 X-7.324 Y24.920 E0.0169
G1 X-3.273 Y28.971 E0.1715
G1 X-2.990 Y28.689 E0.0120
G1 X-6.758 Y24.920 E0.1595
G1 X-6.193 Y24.920 E0.0169
G1 X-2.707 Y28.406 E0.1476
G1 X-2.424 Y28.123 E0.0120
G1 X-5.627 Y24.920 E0.1356
G1 X-5.061 Y24.920 E0.0169
G1 X-2.141 Y27.840 E0.1236
G1 X-1.858 Y27.557 E0.0120
G1 X-4.496 Y24.920 E0.1116
G1 X-3.930 Y24.920 E0.0169
G1 X-1.576 Y27.274 E0.0997
G1 X-1.293 Y26.992 E0.0120
G1 X-3.364 Y24.920 E0.0877
G1 X-2.799 Y24.920 E0.0169
G1 X-1.010 Y26.709 E0.0757
G1 X-0.727 Y26.426 E0.0120
G1 X-2.233 Y24.920 E0.0637
G1 X-1.667 Y24.920 E0.0169
G1 X-0.444 Y26.143 E0.0518
G1 X-0.161 Y25.860 E0.0120
G1 X-1.102 Y24.920 E0.0398
G1 X-0.536 Y24.920 E0.0169
G1 X0.122 Y25.577 E0.0278
G1 X0.404 Y25.295 E0.0120
G1 X0.030 Y24.920 E0.0159
G1 X0.596 Y24.920 E0.0169
G1 X0.756 Y25.080 E0.0068
G1 X1.321 Y25.080 E0.0169
G1 X1.161 Y24.920 E0.0068
G1 X1.727 Y24.920 E0.0169
G1 X1.887 Y25.080 E0.0068
G1 X2.453 Y25.080 E0.0169
G1 X2.293 Y24.920 E0.0068
G1 X2.858 Y24.920 E0.0169
G1 X3.018 Y25.080 E0.0068
G1 X3.584 Y25.080 E0.0169
G1 X3.424 Y24.920 E0.0068
G1 X3.990 Y24.920 E0.0169
G1 X4.150 Y25.080 E0.0068
G1 X4.715 Y25.080 E0.0169
G1 X4.555 Y24.920 E0.0068
G1 X5.121 Y24.920 E0.0169
G1 X5.281 Y25.080 E0.0068
G1 X5.847 Y25.080 E0.0169
G1 X5.687 Y24.920 E0.0068
G1 X6.252 Y24.920 E0.0169
G1 X6.412 Y25.080 E0.0068
G1 X6.978 Y25.080 E0.0169
G1 X6.818 Y24.920 E0.0068
G1 X7.384 Y24.920 E0.0169
G1 X7.544 Y25.080 E0.0068
G1 X8.109 Y25.080 E0.0169
G1 X7.949 Y24.920 E0.0068
G1 X8.515 Y24.920 E0.0169
G1 X8.675 Y25.080 E0.0068
G1 X9.241 Y25.080 E0.0169
G1 X9.081 Y24.920 E0.0068
G1 X9.647 Y24.920 E0.0169
G1 X9.807 Y25.080 E0.0068
G1 X10.080 Y25.080 E0.0082
G1 X10.080 Y24.788 E0.0087
G1 X9.920 Y24.628 E0.0068
G1 X9.920 Y24.062 E0.0169
G1 X10.080 Y24.222 E0.0068
G1 X10.080 Y23.656 E0.0169
G1 X9.920 Y23.496 E0.0068
G1 X9.920 Y22.931 E0.0169
G1 X10.080 Y23.091 E0.0068
G1 X10.080 Y22.525 E0.0169
G1 X9.920 Y22.365 E0.0068
G1 X9.920 Y21.920 E0.0133
G1 X10.041 Y21.920 E0.0036
G1 X10.201 Y22.080 E0.0068
G1 X10.766 Y22.080 E0.0169
G1 X10.606 Y21.920 E0.0068
G1 X11.172 Y21.920 E0.0169
G1 X11.332 Y22.080 E0.0068
G1 X11.898 Y22.080 E0.0169
G1 X11.738 Y21.920 E0.0068
G1 X12.303 Y21.920 E0.0169
G1 X12.463 Y22.080 E0.0068
G1 X13.029 Y22.080 E0.0169
G1 X12.869 Y21.920 E0.0068
G1 X13.435 Y21.920 E0.0169
G1 X13.595 Y22.080 E0.0068
G1 X14.160 Y22.080 E0.0169
G1 X14.000 Y21.920 E0.0068
G1 X14.566 Y21.920 E0.0169
G1 X14.726 Y22.080 E0.0068
G1 X15.292 Y22.080 E0.0169
G1 X15.132 Y21.920 E0.0068
G1 X15.697 Y21.920 E0.0169
G1 X15.857 Y22.080 E0.0068
G1 X16.423 Y22.080 E0.0169
G1 X16.263 Y21.920 E0.0068
G1 X16.829 Y21.920 E0.0169
G1 X16.989 Y22.080 E0.0068
G1 X17.555 Y22.080 E0.0169
G1 X17.395 Y21.920 E0.0068
G1 X17.960 Y21.920 E0.0169
G1 X18.120 Y22.080 E0.0068
G1 X18.686 Y22.080 E0.0169
G1 X18.526 Y21.920 E0.0068
G1 X19.092 Y21.920 E0.0169
G1 X19.252 Y22.080 E0.0068
G1 X19.817 Y22.080 E0.0169
G1 X19.657 Y21.920 E0.0068
G1 E-1.0000 F1200
G1 X-13.547 Y24.920 F4200
G1 E1.0000 F1200
G1 X-8.387 Y30.080 E0.2184 F1440
G1 X-8.952 Y30.080 E0.0169
G1 X-14.112 Y24.920 E0.2184
G1 X-14.678 Y24.920 E0.0169
G1 X-9.518 Y30.080 E0.2184
G1 X-10.084 Y30.080 E0.0169
G1 X-15.244 Y24.920 E0.2184
G1 X-15.809 Y24.920 E0.0169
G1 X-10.649 Y30.080 E0.2184
G1 X-11.215 Y30.080 E0.0169
G1 X-16.375 Y24.920 E0.2184
G1 X-16.941 Y24.920 E0.0169
G1 X-11.781 Y30.080 E0.2184
G1 X-12.346 Y30.080 E0.0169
G1 X-17.506 Y24.920 E0.2184
G1 X-18.072 Y24.920 E0.0169
G1 X-12.912 Y30.080 E0.2184
G1 X-13.478 Y30.080 E0.0169
G1 X-18.638 Y24.920 E0.2184
G1 X-19.203 Y24.920 E0.0169
G1 X-19.043 Y25.080 E0.0068
G1 X-19.609 Y25.080 E0.0169
G1 X-19.769 Y24.920 E0.0068
G1 E-1.0000 F1200
; inner perimeter
G1 X-13.400 Y-14.050 F4200
G1 E1.0000 F1200
G1 X-13.400 Y-24.600 E0.3158 F1350
G1 X-20.400 Y-24.600 E0.2095
G1 X-20.400 Y-25.400 E0.0239
G1 X-18.751 Y-25.400 E0.0493
G1 X-13.751 Y-30.400 E0.2117
G1 X-4.249 Y-30.400 E0.2845
G1 X0.751 Y-25.400 E0.2117
G1 X10.400 Y-25.400 E0.2888
G1 X10.400 Y-22.400 E0.0898
G1 X20.400 Y-22.400 E0.2993
G1 X20.400 Y-21.600 E0.0239
G1 X9.600 Y-21.600 E0.3233
G1 X9.600 Y-24.600 E0.0898
G1 X-12.600 Y-24.600 E0.6645
G1 X-12.600 Y-14.050 E0.3158
G1 X-13.400 Y-14.050 E0.0239
; outer perimeter
G1 X-13.800 Y-13.650 F4200
G1 X-13.800 Y-24.200 E0.3158 F900
G1 X-20.800 Y-24.200 E0.2095
G1 X-20.800 Y-25.800 E0.0479
G1 X-18.917 Y-25.800 E0.0564
G1 X-13.917 Y-30.800 E0.2117
G1 X-4.083 Y-30.800 E0.2944
G1 X0.917 Y-25.800 E0.2117
G1 X10.800 Y-25.800 E0.2958
G1 X10.800 Y-22.800 E0.0898
G1 X20.800 Y-22.800 E0.2993
G1 X20.800 Y-21.200 E0.0479
G1 X9.200 Y-21.200 E0.3472
G1 X9.200 Y-24.200 E0.0898
G1 X-12.200 Y-24.200 E0.6406
G1 X-12.200 Y-13.650 E0.3158
G1 X-13.800 Y-13.650 E0.0479
; solid layer
G1 X-13.080 Y-14.777 F4200
