; G-Code generated by Simplify3D(R) Version 4.0.1
; Jul 2, 2018 at 5:58:59 PM
; Settings Summary
;   processName,Process1
;   applyToModels,bracket
;   profileName,Qidi Technology Qidi Tech I
;   profileVersion,2016-08-03 08:00:00
;   baseProfile,
;   printMaterial,PLA
;   printQuality,Medium
;   printExtruders,Both Extruders
;   extruderName,Right Extruder,Left Extruder
;   extruderToolheadNumber,0,1
;   extruderDiameter,0.4,0.4
;   extruderAutoWidth,0,0
;   extruderWidth,0.4,0.4
;   extrusionMultiplier,0.9,0.9
;   extruderUseRetract,1,1
;   extruderRetractionDistance,1,1
;   extruderExtraRestartDistance,0,0
;   extruderRetractionZLift,0,0
;   extruderRetractionSpeed,1200,1200
;   extruderUseCoasting,0,0
;   extruderCoastingDistance,0.2,0.2
;   extruderUseWipe,0,0
;   extruderWipeDistance,5,5
;   primaryExtruder,1
;   layerHeight,0.2
;   topSolidLayers,3
;   bottomSolidLayers,3
;   perimeterOutlines,2
;   printPerimetersInsideOut,1
;   startPointOption,2
;   startPointOriginX,0
;   startPointOriginY,0
;   sequentialIslands,0
;   spiralVaseMode,0
;   firstLayerHeightPercentage,90
;   firstLayerWidthPercentage,100
;   firstLayerUnderspeed,0.5
;   useRaft,0
;   raftExtruder,0
;   raftTopLayers,3
;   raftBaseLayers,2
;   raftOffset,3
;   raftSeparationDistance,0.14
;   raftTopInfill,100
;   aboveRaftSpeedMultiplier,0.3
;   useSkirt,0
;   skirtExtruder,0
;   skirtLayers,1
;   skirtOutlines,2
;   skirtOffset,4
;   usePrimePillar,0
;   primePillarExtruder,999
;   primePillarWidth,12
;   primePillarLocation,7
;   primePillarSpeedMultiplier,1
;   useOozeShield,1
;   oozeShieldExtruder,999
;   oozeShieldOffset,2
;   oozeShieldOutlines,1
;   oozeShieldSidewallShape,1
;   oozeShieldSidewallAngle,30
;   oozeShieldSpeedMultiplier,1
;   infillExtruder,1
;   internalInfillPattern,Rectilinear
;   externalInfillPattern,Rectilinear
;   infillPercentage,20
;   outlineOverlapPercentage,20
;   infillExtrusionWidthPercentage,100
;   minInfillLength,5
;   infillLayerInterval,1
;   internalInfillAngles,45,-45
;   overlapInternalInfillAngles,0
;   externalInfillAngles,45,-45
;   generateSupport,1
;   supportExtruder,0
;   supportInfillPercentage,30
;   supportExtraInflation,0
;   supportBaseLayers,0
;   denseSupportExtruder,0
;   denseSupportLayers,0
;   denseSupportInfillPercentage,70
;   supportLayerInterval,1
;   supportHorizontalPartOffset,0.3
;   supportUpperSeparationLayers,1
;   supportLowerSeparationLayers,1
;   supportType,0
;   supportGridSpacing,4
;   maxOverhangAngle,45
;   supportAngles,0
;   temperatureName,Right Extruder,Left Extruder,Heated Build Platform
;   temperatureNumber,0,1,0
;   temperatureSetpointCount,1,1,1
;   temperatureSetpointLayers,1,1,1
;   temperatureSetpointTemperatures,215,215,65
;   temperatureStabilizeAtStartup,0,0,0
;   temperatureHeatedBed,0,0,1
;   temperatureRelayBetweenLayers,0,0,0
;   temperatureRelayBetweenLoops,0,0,0
;   fanLayers,1,2
;   fanSpeeds,0,100
;   blipFanToFullPower,0
;   adjustSpeedForCooling,1
;   minSpeedLayerTime,15
;   minCoolingSpeedSlowdown,20
;   increaseFanForCooling,0
;   minFanLayerTime,45
;   maxCoolingFanSpeed,100
;   increaseFanForBridging,1
;   bridgingFanSpeed,100
;   use5D,1
;   relativeEdistances,1
;   allowEaxisZeroing,0
;   independentExtruderAxes,1
;   includeM10123,0
;   stickySupport,1
;   applyToolheadOffsets,0
;   gcodeXoffset,0
;   gcodeYoffset,0
;   gcodeZoffset,0
;   overrideMachineDefinition,1
;   machineTypeOverride,0
;   strokeXoverride,225
;   strokeYoverride,145
;   strokeZoverride,150
;   originOffsetXoverride,112.5
;   originOffsetYoverride,72.5
;   originOffsetZoverride,0
;   homeXdirOverride,1
;   homeYdirOverride,1
;   homeZdirOverride,-1
;   flipXoverride,1
;   flipYoverride,-1
;   flipZoverride,1
;   toolheadOffsets,0,0|34,0|0,0|0,0|0,0|0,0
;   overrideFirmwareConfiguration,1
;   firmwareTypeOverride,MakerBot/Sailfish Firmware
;   GPXconfigOverride,r1d
;   baudRateOverride,115200
;   overridePrinterModels,1
;   printerModelsOverride,MakerBot_Replicator1.stl
;   startingGcode,M73 P0 ; Enable build progress,G162 X Y F3000 ; Home XY maximum,G161 Z F1200 ; Home Z minimum,G92 X0 Y0 Z-5 A0 B0 ; Set Z to -5,G1 Z0 ; Move Z to 0,G161 Z F100 ; Home Z slowly,M132 X Y Z A B ; Recall home offsets,M135 T0 ; Load right extruder offsets,G1 X-110 Y-70 Z30 F9000 ; Move to wait position off table,G130 X20 Y20 Z20 A20 B20 ; Lower stepper Vrefs while heating,M126 S[fan_speed_pwm] ; Set fan speed,M140 S[bed0_temperature] T0 ; Heat buildplate ,M104 S[extruder0_temperature] T0 ; Heat right extruder,M104 S[extruder1_temperature] T1 ; Heat left extruder,M134 T0 ; Stabilize bed temperature,M133 T0 ; Stabilize right extruder temperature,M133 T1 ; Stabilize left extruder temperature,G130 X127 Y127 Z40 A127 B127 ; Default stepper Vrefs,G92 A0 B0 ; Zero extruders,G1 X100 Y-70 F9000 ; Move to front right corner of bed,G1 Z0.3 F6000 ; Move down to purge,G1 X-90 Y-70 E24 F2000 ; Extrude a line of filament across the front edge of the bed,G1 X-100 Y-70 F180 ; Wait for ooze,G1 X-110 Y-70 F5000 ; Fast wipe,G1 Z0.5 F100 ; Lift,G92 A0 B0 ; Zero extruders,M135 T1 ; Load left extruder offsets,G1 X-100 Y-68 F9000 ; Move to front left corner of bed,G1 Z0.3 F6000 ; Move down to purge,G1 X90 Y-68 E24 F2000 ; Extrude a line of filament across the front edge of the bed,G1 X100 Y-68 F180 ; Wait for ooze,G1 X110 Y-68 F5000 ; Fast wipe,G1 Z1 F100 ; Lift,G92 A0 B0 ; Zero extruders,M73 P1 ; @body (notify GPX body has started)
;   layerChangeGcode,
;   retractionGcode,
;   toolChangeGcode,
;   endingGcode,M73 P100 ; end build progress,G1 Z150 F1000 ; send Z axis to bottom of machine,M140 S0 T0 ; cool down HBP,M104 S0 T0 ; cool down right extruder,M104 S0 T1 ; cool down left extruder,M127 ; stop blower fan,G162 X Y F3000 ; home XY maximum,M18 ; disable stepper,M72 P1 ; play Ta-Da song
;   exportFileFormat,x3g
;   celebration,0
;   celebrationSong,Random Song
;   postProcessing,
;   defaultSpeed,3600
;   outlineUnderspeed,0.5
;   solidInfillUnderspeed,0.8
;   supportUnderspeed,0.8
;   rapidXYspeed,4200
;   rapidZspeed,1200
;   minBridgingArea,50
;   bridgingExtraInflation,0
;   bridgingExtrusionMultiplier,1
;   bridgingSpeedMultiplier,0.8
;   useFixedBridgingAngle,0
;   fixedBridgingAngle,0
;   applyBridgingToPerimeters,0
;   filamentDiameters,1.75|1.75|1.75|1.75|1.75|1.75
;   filamentPricesPerKg,46|46|46|46|46|46
;   filamentDensities,1.25|1.25|1.25|1.25|1.25|1.25
;   useMinPrintHeight,0
;   minPrintHeight,0
;   useMaxPrintHeight,0
;   maxPrintHeight,0
;   useDiaphragm,0
;   diaphragmLayerInterval,20
;   robustSlicing,1
;   mergeAllIntoSolid,0
;   onlyRetractWhenCrossingOutline,1
;   retractBetweenLayers,1
;   useRetractionMinTravel,0
;   retractionMinTravel,3
;   retractWhileWiping,0
;   onlyWipeOutlines,1
;   avoidCrossingOutline,0
;   maxMovementDetourFactor,3
;   toolChangeRetractionDistance,12
;   toolChangeExtraRestartDistance,-0.5
;   toolChangeRetractionSpeed,600
;   externalThinWallType,0
;   internalThinWallType,2
;   thinWallAllowedOverlapPercentage,10
;   singleExtrusionMinLength,1
;   singleExtrusionMinPrintingWidthPercentage,50
;   singleExtrusionMaxPrintingWidthPercentage,200
;   singleExtrusionEndpointExtension,0.2
;   horizontalSizeCompensation,0
G90
M83
M73 P0 ; Enable build progress
G162 X Y F3000 ; Home XY maximum
G161 Z F1200 ; Home Z minimum
G92 X0 Y0 Z-5 A0 B0 ; Set Z to -5
G1 Z0 ; Move Z to 0
G161 Z F100 ; Home Z slowly
M132 X Y Z A B ; Recall home offsets
M135 T0 ; Load right extruder offsets
G1 X-110 Y-70 Z30 F9000 ; Move to wait position off table
G130 X20 Y20 Z20 A20 B20 ; Lower stepper Vrefs while heating
M127 ; Set fan speed
M140 S65 T0 ; Heat buildplate 
M104 S215 T0 ; Heat right extruder
M104 S215 T1 ; Heat left extruder
M134 T0 ; Stabilize bed temperature
M133 T0 ; Stabilize right extruder temperature
M133 T1 ; Stabilize left extruder temperature
G130 X127 Y127 Z40 A127 B127 ; Default stepper Vrefs
G92 A0 B0 ; Zero extruders
G1 X100 Y-70 F9000 ; Move to front right corner of bed
G1 Z0.3 F6000 ; Move down to purge
G1 X-90 Y-70 E24 F2000 ; Extrude a line of filament across the front edge of the bed
G1 X-100 Y-70 F180 ; Wait for ooze
G1 X-110 Y-70 F5000 ; Fast wipe
G1 Z0.5 F100 ; Lift
G92 A0 B0 ; Zero extruders
M135 T1 ; Load left extruder offsets
G1 X-100 Y-68 F9000 ; Move to front left corner of bed
G1 Z0.3 F6000 ; Move down to purge
G1 X90 Y-68 E24 F2000 ; Extrude a line of filament across the front edge of the bed
G1 X100 Y-68 F180 ; Wait for ooze
G1 X110 Y-68 F5000 ; Fast wipe
G1 Z1 F100 ; Lift
G92 A0 B0 ; Zero extruders
M73 P1 ; @body (notify GPX body has started)
G1 E-1.0000 F1200
G1 Z0.180 F1200
; process Process1
; layer 1, Z = 0.180
M135 T1
; tool H0.200 W0.400
; inner perimeter
G1 X-1.858 Y21.600 F4200
G1 E1.0000 F360
G1 X20.448 Y21.600 E0.6677 F1350
G1 X20.448 Y22.400 E0.0239
G1 X-1.142 Y22.400 E0.6463
G1 X-11.142 Y27.400 E0.3347
G1 X-14.249 Y27.400 E0.0930
G1 X-19.249 Y32.400 E0.2117
G1 X-28.400 Y32.400 E0.2739
G1 X-28.400 Y26.600 E0.1736
G1 X-21.400 Y26.600 E0.2095
G1 X-21.400 Y15.050 E0.3457
G1 X-20.600 Y15.050 E0.0239
G1 X-20.600 Y26.600 E0.3457
G1 X-11.858 Y26.600 E0.2617
G1 X-1.858 Y21.600 E0.3347
; outer perimeter
G1 X-1.953 Y21.200 F4200
G1 X20.848 Y21.200 E0.6825 F900
G1 X20.848 Y22.800 E0.0479
G1 X-1.047 Y22.800 E0.6554
G1 X-11.047 Y27.800 E0.3347
G1 X-14.083 Y27.800 E0.0909
G1 X-19.083 Y32.800 E0.2117
G1 X-28.800 Y32.800 E0.2909
G1 X-28.800 Y26.200 E0.1976
G1 X-21.800 Y26.200 E0.2095
G1 X-21.800 Y14.650 E0.3457
G1 X-20.200 Y14.650 E0.0479
G1 X-20.200 Y26.200 E0.3457
G1 X-11.953 Y26.200 E0.2469
G1 X-1.953 Y21.200 E0.3347
G1 E-1.0000 F1200
; solid layer
G1 X-21.080 Y15.690 F4200
G1 E1.0000 F1200
G1 X-20.920 Y15.850 E0.0068 F1440
G1 X-20.920 Y16.415 E0.0169
G1 X-21.080 Y16.255 E0.0068
G1 X-21.080 Y16.821 E0.0169
G1 X-20.920 Y16.981 E0.0068
G1 X-20.920 Y17.547 E0.0169
G1 X-21.080 Y17.387 E0.0068
G1 X-21.080 Y17.952 E0.0169
G1 X-20.920 Y18.112 E0.0068
G1 X-20.920 Y18.678 E0.0169
G1 X-21.080 Y18.518 E0.0068
G1 X-21.080 Y19.084 E0.0169
G1 X-20.920 Y19.244 E0.0068
G1 X-20.920 Y19.809 E0.0169
G1 X-21.080 Y19.649 E0.0068
G1 X-21.080 Y20.215 E0.0169
G1 X-20.920 Y20.375 E0.0068
G1 X-20.920 Y20.941 E0.0169
G1 X-21.080 Y20.781 E0.0068
G1 X-21.080 Y21.346 E0.0169
G1 X-20.920 Y21.506 E0.0068
G1 X-20.920 Y22.072 E0.0169
G1 X-21.080 Y21.912 E0.0068
G1 X-21.080 Y22.478 E0.0169
G1 X-20.920 Y22.638 E0.0068
G1 X-20.920 Y23.203 E0.0169
G1 X-21.080 Y23.043 E0.0068
G1 X-21.080 Y23.609 E0.0169
G1 X-20.920 Y23.769 E0.0068
G1 X-20.920 Y24.335 E0.0169
G1 X-21.080 Y24.175 E0.0068
G1 X-21.080 Y24.741 E0.0169
G1 X-20.920 Y24.901 E0.0068
G1 X-20.920 Y25.466 E0.0169
G1 X-21.080 Y25.306 E0.0068
G1 X-21.080 Y25.872 E0.0169
G1 X-20.920 Y26.032 E0.0068
G1 X-20.920 Y26.598 E0.0169
G1 X-21.080 Y26.438 E0.0068
G1 X-21.080 Y26.920 E0.0144
G1 X-21.163 Y26.920 E0.0025
G1 X-17.692 Y30.391 E0.1469
G1 X-17.409 Y30.108 E0.0120
G1 X-20.598 Y26.920 E0.1350
G1 X-20.032 Y26.920 E0.0169
G1 X-17.126 Y29.825 E0.1230
G1 X-16.844 Y29.543 E0.0120
G1 X-19.466 Y26.920 E0.1110
G1 X-18.901 Y26.920 E0.0169
G1 X-16.561 Y29.260 E0.0990
G1 X-16.278 Y28.977 E0.0120
G1 X-18.335 Y26.920 E0.0871
G1 X-17.769 Y26.920 E0.0169
G1 X-15.995 Y28.694 E0.0751
G1 X-15.712 Y28.411 E0.0120
G1 X-17.203 Y26.920 E0.0631
G1 X-16.638 Y26.920 E0.0169
G1 X-15.429 Y28.128 E0.0512
G1 X-15.147 Y27.846 E0.0120
G1 X-16.072 Y26.920 E0.0392
G1 X-15.506 Y26.920 E0.0169
G1 X-14.864 Y27.563 E0.0272
G1 X-14.581 Y27.280 E0.0120
G1 X-14.941 Y26.920 E0.0152
G1 X-14.375 Y26.920 E0.0169
G1 X-14.215 Y27.080 E0.0068
G1 X-13.649 Y27.080 E0.0169
G1 X-13.809 Y26.920 E0.0068
G1 X-13.244 Y26.920 E0.0169
G1 X-13.084 Y27.080 E0.0068
G1 X-12.518 Y27.080 E0.0169
G1 X-12.678 Y26.920 E0.0068
G1 X-12.112 Y26.920 E0.0169
G1 X-11.952 Y27.080 E0.0068
G1 X-11.387 Y27.080 E0.0169
G1 X-11.625 Y26.841 E0.0101
G1 X-11.248 Y26.653 E0.0126
G1 X-10.953 Y26.948 E0.0125
G1 X-10.576 Y26.759 E0.0126
G1 X-10.871 Y26.464 E0.0125
G1 X-10.494 Y26.276 E0.0126
G1 X-10.199 Y26.571 E0.0125
G1 X-9.822 Y26.382 E0.0126
G1 X-10.117 Y26.087 E0.0125
G1 X-9.740 Y25.898 E0.0126
G1 X-9.445 Y26.194 E0.0125
G1 X-9.067 Y26.005 E0.0126
G1 X-9.363 Y25.710 E0.0125
G1 X-8.985 Y25.521 E0.0126
G1 X-8.690 Y25.817 E0.0125
G1 X-8.313 Y25.628 E0.0126
G1 X-8.608 Y25.333 E0.0125
G1 X-8.231 Y25.144 E0.0126
G1 X-7.936 Y25.439 E0.0125
G1 X-7.559 Y25.251 E0.0126
G1 X-7.854 Y24.956 E0.0125
G1 X-7.477 Y24.767 E0.0126
G1 X-7.182 Y25.062 E0.0125
G1 X-6.805 Y24.874 E0.0126
G1 X-7.100 Y24.579 E0.0125
G1 X-6.723 Y24.390 E0.0126
G1 X-6.428 Y24.685 E0.0125
G1 X-6.050 Y24.497 E0.0126
G1 X-6.346 Y24.201 E0.0125
G1 X-5.968 Y24.013 E0.0126
G1 X-5.673 Y24.308 E0.0125
G1 X-5.296 Y24.119 E0.0126
G1 X-5.591 Y23.824 E0.0125
G1 X-5.214 Y23.636 E0.0126
G1 X-4.919 Y23.931 E0.0125
G1 X-4.542 Y23.742 E0.0126
G1 X-4.837 Y23.447 E0.0125
G1 X-4.460 Y23.259 E0.0126
G1 X-4.165 Y23.554 E0.0125
G1 X-3.788 Y23.365 E0.0126
G1 X-4.083 Y23.070 E0.0125
G1 X-3.706 Y22.881 E0.0126
G1 X-3.411 Y23.177 E0.0125
G1 X-3.033 Y22.988 E0.0126
G1 X-3.329 Y22.693 E0.0125
G1 X-2.951 Y22.504 E0.0126
G1 X-2.656 Y22.800 E0.0125
G1 X-2.279 Y22.611 E0.0126
G1 X-2.574 Y22.316 E0.0125
G1 X-2.197 Y22.127 E0.0126
G1 X-1.902 Y22.422 E0.0125
G1 X-1.525 Y22.234 E0.0126
G1 X-1.820 Y21.939 E0.0125
G1 X-1.783 Y21.920 E0.0012
G1 X-1.273 Y21.920 E0.0153
G1 X-1.113 Y22.080 E0.0068
G1 X-0.547 Y22.080 E0.0169
G1 X-0.707 Y21.920 E0.0068
G1 X-0.142 Y21.920 E0.0169
G1 X0.018 Y22.080 E0.0068
G1 X0.584 Y22.080 E0.0169
G1 X0.424 Y21.920 E0.0068
G1 X0.990 Y21.920 E0.0169
G1 X1.150 Y22.080 E0.0068
G1 X1.715 Y22.080 E0.0169
G1 X1.555 Y21.920 E0.0068
G1 X2.121 Y21.920 E0.0169
G1 X2.281 Y22.080 E0.0068
G1 X2.847 Y22.080 E0.0169
G1 X2.687 Y21.920 E0.0068
G1 X3.252 Y21.920 E0.0169
G1 X3.412 Y22.080 E0.0068
G1 X3.978 Y22.080 E0.0169
G1 X3.818 Y21.920 E0.0068
G1 X4.384 Y21.920 E0.0169
G1 X4.544 Y22.080 E0.0068
G1 X5.109 Y22.080 E0.0169
G1 X4.949 Y21.920 E0.0068
G1 X5.515 Y21.920 E0.0169
G1 X5.675 Y22.080 E0.0068
G1 X6.241 Y22.080 E0.0169
G1 X6.081 Y21.920 E0.0068
G1 X6.647 Y21.920 E0.0169
G1 X6.807 Y22.080 E0.0068
G1 X7.372 Y22.080 E0.0169
G1 X7.212 Y21.920 E0.0068
G1 X7.778 Y21.920 E0.0169
G1 X7.938 Y22.080 E0.0068
G1 X8.504 Y22.080 E0.0169
G1 X8.344 Y21.920 E0.0068
G1 X8.909 Y21.920 E0.0169
G1 X9.069 Y22.080 E0.0068
G1 X9.635 Y22.080 E0.0169
G1 X9.475 Y21.920 E0.0068
G1 X10.041 Y21.920 E0.0169
G1 X10.201 Y22.080 E0.0068
G1 X10.766 Y22.080 E0.0169
G1 X10.606 Y21.920 E0.0068
G1 X11.172 Y21.920 E0.0169
G1 X11.332 Y22.080 E0.0068
G1 X11.898 Y22.080 E0.0169
G1 X11.738 Y21.920 E0.0068
G1 X12.303 Y21.920 E0.0169
G1 X12.463 Y22.080 E0.0068
G1 X13.029 Y22.080 E0.0169
G1 X12.869 Y21.920 E0.0068
G1 X13.435 Y21.920 E0.0169
G1 X13.595 Y22.080 E0.0068
G1 X14.160 Y22.080 E0.0169
G1 X14.000 Y21.920 E0.0068
G1 X14.566 Y21.920 E0.0169
G1 X14.726 Y22.080 E0.0068
G1 X15.292 Y22.080 E0.0169
G1 X15.132 Y21.920 E0.0068
G1 X15.697 Y21.920 E0.0169
G1 X15.857 Y22.080 E0.0068
G1 X16.423 Y22.080 E0.0169
G1 X16.263 Y21.920 E0.0068
G1 X16.829 Y21.920 E0.0169
G1 X16.989 Y22.080 E0.0068
G1 X17.555 Y22.080 E0.0169
G1 X17.395 Y21.920 E0.0068
G1 X17.960 Y21.920 E0.0169
G1 X18.120 Y22.080 E0.0068
G1 X18.686 Y22.080 E0.0169
G1 X18.526 Y21.920 E0.0068
G1 X19.092 Y21.920 E0.0169
G1 X19.252 Y22.080 E0.0068
G1 X19.817 Y22.080 E0.0169
G1 X19.657 Y21.920 E0.0068
G1 E-1.0000 F1200
G1 X-21.729 Y26.920 F4200
G1 E1.0000 F1200
G1 X-17.975 Y30.674 E0.1589 F1440
G1 X-18.258 Y30.957 E0.0120
G1 X-22.295 Y26.920 E0.1709
G1 X-22.860 Y26.920 E0.0169
G1 X-18.541 Y31.240 E0.1829
G1 X-18.824 Y31.522 E0.0120
G1 X-23.426 Y26.920 E0.1948
G1 X-23.992 Y26.920 E0.0169
G1 X-19.106 Y31.805 E0.2068
G1 X-19.381 Y32.080 E0.0116
G1 X-19.397 Y32.080 E0.0005
G1 X-24.557 Y26.920 E0.2184
G1 X-25.123 Y26.920 E0.0169
G1 X-19.963 Y32.080 E0.2184
G1 X-20.529 Y32.080 E0.0169
G1 X-25.689 Y26.920 E0.2184
G1 X-26.254 Y26.920 E0.0169
G1 X-21.094 Y32.080 E0.2184
G1 X-21.660 Y32.080 E0.0169
G1 X-26.820 Y26.920 E0.2184
G1 X-27.386 Y26.920 E0.0169
G1 X-22.226 Y32.080 E0.2184
G1 X-22.791 Y32.080 E0.0169
G1 X-27.951 Y26.920 E0.2184
