; G-Code generated by Simplify3D(R) Version 4.0.1
; Jul 21, 2018 at 1:34:20 PM
; Settings Summary
;   processName,ProcessABS
;   applyToModels,bracket
;   profileName,Qidi Technology Qidi Tech I
;   profileVersion,2016-08-03 08:00:00
;   baseProfile,
;   printMaterial,ABS
;   printQuality,High
;   printExtruders,Left Extruder Only
;   extruderName,Right Extruder,Left Extruder
;   extruderToolheadNumber,0,1
;   extruderDiameter,0.4,0.4
;   extruderAutoWidth,0,0
;   extruderWidth,0.4,0.4
;   extrusionMultiplier,1,1
;   extruderUseRetract,1,1
;   extruderRetractionDistance,1,1
;   extruderExtraRestartDistance,0,0
;   extruderRetractionZLift,0,0
;   extruderRetractionSpeed,1200,1200
;   extruderUseCoasting,0,0
;   extruderCoastingDistance,0.2,0.2
;   extruderUseWipe,0,0
;   extruderWipeDistance,5,5
;   primaryExtruder,1
;   layerHeight,0.1
;   topSolidLayers,4
;   bottomSolidLayers,4
;   perimeterOutlines,2
;   printPerimetersInsideOut,1
;   startPointOption,2
;   startPointOriginX,0
;   startPointOriginY,0
;   sequentialIslands,0
;   spiralVaseMode,0
;   firstLayerHeightPercentage,90
;   firstLayerWidthPercentage,100
;   firstLayerUnderspeed,0.5
;   useRaft,0
;   raftExtruder,1
;   raftTopLayers,3
;   raftBaseLayers,2
;   raftOffset,3
;   raftSeparationDistance,0.14
;   raftTopInfill,100
;   aboveRaftSpeedMultiplier,0.3
;   useSkirt,1
;   skirtExtruder,1
;   skirtLayers,2
;   skirtOutlines,4
;   skirtOffset,4
;   usePrimePillar,0
;   primePillarExtruder,999
;   primePillarWidth,12
;   primePillarLocation,7
;   primePillarSpeedMultiplier,1
;   useOozeShield,0
;   oozeShieldExtruder,999
;   oozeShieldOffset,2
;   oozeShieldOutlines,1
;   oozeShieldSidewallShape,1
;   oozeShieldSidewallAngle,30
;   oozeShieldSpeedMultiplier,1
;   infillExtruder,1
;   internalInfillPattern,Rectilinear
;   externalInfillPattern,Rectilinear
;   infillPercentage,30
;   outlineOverlapPercentage,20
;   infillExtrusionWidthPercentage,100
;   minInfillLength,5
;   infillLayerInterval,1
;   internalInfillAngles,45,-45
;   overlapInternalInfillAngles,0
;   externalInfillAngles,45,-45
;   generateSupport,1
;   supportExtruder,1
;   supportInfillPercentage,40
;   supportExtraInflation,0
;   supportBaseLayers,0
;   denseSupportExtruder,1
;   denseSupportLayers,0
;   denseSupportInfillPercentage,70
;   supportLayerInterval,1
;   supportHorizontalPartOffset,0.3
;   supportUpperSeparationLayers,1
;   supportLowerSeparationLayers,1
;   supportType,0
;   supportGridSpacing,4
;   maxOverhangAngle,45
;   supportAngles,0
;   temperatureName,Right Extruder,Left Extruder,Heated Build Platform
;   temperatureNumber,0,1,0
;   temperatureSetpointCount,1,2,1
;   temperatureSetpointLayers,1,1,4,1
;   temperatureSetpointTemperatures,0,240,230,110
;   temperatureStabilizeAtStartup,0,0,0
;   temperatureHeatedBed,0,0,1
;   temperatureRelayBetweenLayers,0,0,0
;   temperatureRelayBetweenLoops,0,0,0
;   fanLayers,1
;   fanSpeeds,0
;   blipFanToFullPower,0
;   adjustSpeedForCooling,1
;   minSpeedLayerTime,15
;   minCoolingSpeedSlowdown,20
;   increaseFanForCooling,0
;   minFanLayerTime,45
;   maxCoolingFanSpeed,100
;   increaseFanForBridging,1
;   bridgingFanSpeed,100
;   use5D,1
;   relativeEdistances,1
;   allowEaxisZeroing,0
;   independentExtruderAxes,1
;   includeM10123,0
;   stickySupport,1
;   applyToolheadOffsets,0
;   gcodeXoffset,0
;   gcodeYoffset,0
;   gcodeZoffset,0.05
;   overrideMachineDefinition,1
;   machineTypeOverride,0
;   strokeXoverride,225
;   strokeYoverride,145
;   strokeZoverride,150
;   originOffsetXoverride,112.5
;   originOffsetYoverride,72.5
;   originOffsetZoverride,0
;   homeXdirOverride,1
;   homeYdirOverride,1
;   homeZdirOverride,-1
;   flipXoverride,1
;   flipYoverride,-1
;   flipZoverride,1
;   toolheadOffsets,0,0|34,0|0,0|0,0|0,0|0,0
;   overrideFirmwareConfiguration,1
;   firmwareTypeOverride,MakerBot/Sailfish Firmware
;   GPXconfigOverride,r1d
;   baudRateOverride,115200
;   overridePrinterModels,1
;   printerModelsOverride,MakerBot_Replicator1.stl
;   startingGcode,M73 P0 ; Enable build progress,G162 X Y F3000 ; Home XY maximum,G161 Z F1200 ; Home Z minimum,G92 X0 Y0 Z-5 A0 B0 ; Set Z to -5,G1 Z0 ; Move Z to 0,G161 Z F100 ; Home Z slowly,M132 X Y Z ; Recall home offsets,M135 T0 ; Load right extruder offsets,G1 X-110 Y-70 Z30 F9000 ; Move to wait position off table,G130 X20 Y20 Z20 A20 B20 ; Lower stepper Vrefs while heating,M126 S[fan_speed_pwm] ; Set fan speed,M140 S[bed0_temperature] T0 ; Heat buildplate ,M134 T0 ; Stabilize bed temperature,M104 S[extruder1_temperature] T1 ; Heat left extruder,M133 T1 ; Stabilize left extruder temperature,G130 X127 Y127 Z40 A127 B127 ; Default stepper Vrefs,G92 A0 B0 ; Zero extruders,M135 T1 ; Load left extruder offsets,G1 X-100 Y-68 F9000 ; Move to front left corner of bed,G1 Z0.3 F6000 ; Move down to purge,G1 X90 Y-68 E24 F2000 ; Extrude a line of filament across the front edge of the bed,G1 X100 Y-68 F180 ; Wait for ooze,G1 X110 Y-68 F5000 ; Fast wipe,G1 Z1 F100 ; Lift,G92 A0 B0 ; Zero extruders,M73 P1 ; @body (notify GPX body has started)
;   layerChangeGcode,
;   retractionGcode,
;   toolChangeGcode,
;   endingGcode,M73 P100 ; end build progress,G1 Z150 F1000 ; send Z axis to bottom of machine,M140 S0 T0 ; cool down HBP,M104 S0 T0 ; cool down right extruder,M104 S0 T1 ; cool down left extruder,M127 ; stop blower fan,G162 X Y F3000 ; home XY maximum,M18 ; disable stepper,M72 P1 ; play Ta-Da song
;   exportFileFormat,x3g
;   celebration,0
;   celebrationSong,Random Song
;   postProcessing,
;   defaultSpeed,3600
;   outlineUnderspeed,0.5
;   solidInfillUnderspeed,0.8
;   supportUnderspeed,0.8
;   rapidXYspeed,4200
;   rapidZspeed,1200
;   minBridgingArea,50
;   bridgingExtraInflation,0
;   bridgingExtrusionMultiplier,1
;   bridgingSpeedMultiplier,0.8
;   useFixedBridgingAngle,0
;   fixedBridgingAngle,0
;   applyBridgingToPerimeters,0
;   filamentDiameters,1.75|1.75|1.75|1.75|1.75|1.75
;   filamentPricesPerKg,46|46|46|46|46|46
;   filamentDensities,1.25|1.25|1.25|1.25|1.25|1.25
;   useMinPrintHeight,0
;   minPrintHeight,0
;   useMaxPrintHeight,0
;   maxPrintHeight,0
;   useDiaphragm,0
;   diaphragmLayerInterval,20
;   robustSlicing,1
;   mergeAllIntoSolid,0
;   onlyRetractWhenCrossingOutline,1
;   retractBetweenLayers,1
;   useRetractionMinTravel,0
;   retractionMinTravel,3
;   retractWhileWiping,0
;   onlyWipeOutlines,1
;   avoidCrossingOutline,0
;   maxMovementDetourFactor,3
;   toolChangeRetractionDistance,12
;   toolChangeExtraRestartDistance,-0.5
;   toolChangeRetractionSpeed,600
;   externalThinWallType,0
;   internalThinWallType,2
;   thinWallAllowedOverlapPercentage,10
;   singleExtrusionMinLength,1
;   singleExtrusionMinPrintingWidthPercentage,50
;   singleExtrusionMaxPrintingWidthPercentage,200
;   singleExtrusionEndpointExtension,0.2
;   horizontalSizeCompensation,0
G90
M83
M73 P0 ; Enable build progress
G162 X Y F3000 ; Home XY maximum
G161 Z F1200 ; Home Z minimum
G92 X0 Y0 Z-5 A0 B0 ; Set Z to -5
G1 Z0 ; Move Z to 0
G161 Z F100 ; Home Z slowly
M132 X Y Z ; Recall home offsets
M135 T0 ; Load right extruder offsets
G1 X-110 Y-70 Z30 F9000 ; Move to wait position off table
G130 X20 Y20 Z20 A20 B20 ; Lower stepper Vrefs while heating
M127 ; Set fan speed
M140 S110 T0 ; Heat buildplate 
M134 T0 ; Stabilize bed temperature
M104 S240 T1 ; Heat left extruder
M133 T1 ; Stabilize left extruder temperature
G130 X127 Y127 Z40 A127 B127 ; Default stepper Vrefs
G92 A0 B0 ; Zero extruders
M135 T1 ; Load left extruder offsets
G1 X-100 Y-68 F9000 ; Move to front left corner of bed
G1 Z0.3 F6000 ; Move down to purge
G1 X90 Y-68 E24 F2000 ; Extrude a line of filament across the front edge of the bed
G1 X100 Y-68 F180 ; Wait for ooze
G1 X110 Y-68 F5000 ; Fast wipe
G1 Z1 F100 ; Lift
G92 A0 B0 ; Zero extruders
M73 P1 ; @body (notify GPX body has started)
G1 E-1.0000 F1200
G1 Z0.140 F1200
; process ProcessABS
; layer 1, Z = 0.090
M135 T1
; tool H0.100 W0.400
; skirt
G1 X0.275 Y-28.400 F4200
G1 E1.0000 F360
G1 X23.010 Y-28.400 E0.3781 F1800
G1 X23.525 Y-28.187 E0.0093
G1 X24.113 Y-27.599 E0.0138
G1 X32.373 Y-27.599 E0.1374
G1 X32.887 Y-27.386 E0.0093
G1 X35.624 Y-24.649 E0.0644
G1 X35.837 Y-24.134 E0.0093
G1 X35.837 Y-19.102 E0.0837
G1 X35.846 Y-19.081 E0.0004
G1 X35.846 Y-14.685 E0.0731
G1 X36.024 Y-14.256 E0.0077
G1 X36.024 Y-5.905 E0.1389
G1 X35.863 Y-5.517 E0.0070
G1 X35.863 Y-4.172 E0.0224
G1 X35.872 Y-4.151 E0.0004
G1 X35.872 Y0.394 E0.0756
G1 X36.050 Y0.824 E0.0077
G1 X36.050 Y5.703 E0.0811
G1 X36.059 Y5.723 E0.0004
G1 X36.059 Y10.678 E0.0824
G1 X36.067 Y10.699 E0.0004
G1 X36.067 Y19.049 E0.1389
G1 X35.907 Y19.438 E0.0070
G1 X35.907 Y24.030 E0.0764
G1 X35.693 Y24.545 E0.0093
G1 X32.956 Y27.282 E0.0644
G1 X32.442 Y27.495 E0.0093
G1 X24.217 Y27.495 E0.1368
G1 X23.525 Y28.187 E0.0163
G1 X23.010 Y28.400 E0.0093
G1 X0.275 Y28.400 E0.3781
G1 X-7.374 Y32.224 E0.1422
G1 X-9.020 Y36.339 E0.0737
G1 X-9.283 Y36.666 E0.0070
G1 X-11.662 Y38.277 E0.0478
G1 X-12.063 Y38.400 E0.0070
G1 X-30.935 Y38.400 E0.3138
G1 X-31.450 Y38.187 E0.0093
G1 X-34.187 Y35.450 E0.0644
G1 X-34.400 Y34.935 E0.0093
G1 X-34.400 Y24.065 E0.1808
G1 X-34.187 Y23.550 E0.0093
G1 X-31.450 Y20.813 E0.0644
G1 X-30.935 Y20.600 E0.0093
G1 X-27.477 Y20.600 E0.0575
G1 X-29.407 Y18.670 E0.0454
G1 X-29.620 Y18.155 E0.0093
G1 X-29.620 Y-18.155 E0.6038
G1 X-29.407 Y-18.670 E0.0093
G1 X-27.477 Y-20.600 E0.0454
G1 X-30.935 Y-20.600 E0.0575
G1 X-31.450 Y-20.813 E0.0093
G1 X-34.187 Y-23.550 E0.0644
G1 X-34.400 Y-24.065 E0.0093
G1 X-34.400 Y-34.935 E0.1808
G1 X-34.187 Y-35.450 E0.0093
G1 X-31.450 Y-38.187 E0.0644
G1 X-30.935 Y-38.400 E0.0093
G1 X-12.063 Y-38.400 E0.3138
G1 X-11.662 Y-38.277 E0.0070
G1 X-9.283 Y-36.666 E0.0478
G1 X-9.020 Y-36.339 E0.0070
G1 X-7.374 Y-32.224 E0.0737
G1 X0.275 Y-28.400 E0.1422
G1 X0.180 Y-28.000 F4200
G1 X22.930 Y-28.000 E0.3783 F1800
G1 X23.298 Y-27.848 E0.0066
G1 X23.992 Y-27.153 E0.0163
G1 X24.102 Y-27.199 E0.0020
G1 X32.293 Y-27.199 E0.1362
G1 X32.661 Y-27.046 E0.0066
G1 X35.285 Y-24.422 E0.0617
G1 X35.437 Y-24.054 E0.0066
G1 X35.437 Y-19.023 E0.0837
G1 X35.446 Y-19.001 E0.0004
G1 X35.446 Y-14.569 E0.0737
G1 X35.472 Y-14.543 E0.0006
G1 X35.624 Y-14.176 E0.0066
G1 X35.624 Y-5.984 E0.1362
G1 X35.472 Y-5.617 E0.0066
G1 X35.463 Y-5.608 E0.0002
G1 X35.463 Y-4.093 E0.0252
G1 X35.472 Y-4.071 E0.0004
G1 X35.472 Y0.510 E0.0762
G1 X35.498 Y0.536 E0.0006
G1 X35.650 Y0.904 E0.0066
G1 X35.650 Y5.782 E0.0811
G1 X35.659 Y5.803 E0.0004
G1 X35.659 Y10.757 E0.0824
G1 X35.667 Y10.778 E0.0004
G1 X35.667 Y18.970 E0.1362
G1 X35.515 Y19.337 E0.0066
G1 X35.507 Y19.346 E0.0002
G1 X35.507 Y23.950 E0.0766
G1 X35.354 Y24.318 E0.0066
G1 X32.730 Y26.942 E0.0617
G1 X32.362 Y27.095 E0.0066
G1 X24.171 Y27.095 E0.1362
G1 X24.086 Y27.060 E0.0015
G1 X23.298 Y27.848 E0.0185
G1 X22.930 Y28.000 E0.0066
G1 X0.180 Y28.000 E0.3783
G1 X-7.689 Y31.934 E0.1463
G1 X-9.369 Y36.135 E0.0752
G1 X-9.557 Y36.369 E0.0050
G1 X-11.837 Y37.912 E0.0458
G1 X-12.123 Y38.000 E0.0050
G1 X-30.856 Y38.000 E0.3115
G1 X-31.223 Y37.848 E0.0066
G1 X-33.848 Y35.223 E0.0617
G1 X-34.000 Y34.856 E0.0066
G1 X-34.000 Y24.144 E0.1781
G1 X-33.848 Y23.777 E0.0066
G1 X-31.223 Y21.152 E0.0617
G1 X-30.856 Y21.000 E0.0066
G1 X-27.000 Y21.000 E0.0641
G1 X-27.000 Y20.511 E0.0081
G1 X-29.068 Y18.443 E0.0486
G1 X-29.220 Y18.076 E0.0066
G1 X-29.220 Y-18.076 E0.6012
G1 X-29.068 Y-18.443 E0.0066
G1 X-27.000 Y-20.511 E0.0486
G1 X-27.000 Y-21.000 E0.0081
G1 X-30.856 Y-21.000 E0.0641
G1 X-31.223 Y-21.152 E0.0066
G1 X-33.848 Y-23.777 E0.0617
G1 X-34.000 Y-24.144 E0.0066
G1 X-34.000 Y-34.856 E0.1781
G1 X-33.848 Y-35.223 E0.0066
G1 X-31.223 Y-37.848 E0.0617
G1 X-30.856 Y-38.000 E0.0066
G1 X-12.123 Y-38.000 E0.3115
G1 X-11.837 Y-37.912 E0.0050
G1 X-9.557 Y-36.369 E0.0458
G1 X-9.369 Y-36.135 E0.0050
G1 X-7.689 Y-31.934 E0.0752
G1 X0.180 Y-28.000 E0.1463
G1 X0.086 Y-27.600 F4200
G1 X22.851 Y-27.600 E0.3786 F1800
G1 X23.071 Y-27.509 E0.0040
G1 X23.917 Y-26.663 E0.0199
G1 X23.961 Y-26.707 E0.0010
G1 X24.181 Y-26.799 E0.0040
G1 X32.213 Y-26.799 E0.1336
G1 X32.434 Y-26.707 E0.0040
G1 X34.946 Y-24.195 E0.0591
G1 X35.037 Y-23.975 E0.0040
G1 X35.037 Y-18.943 E0.0837
G1 X35.046 Y-18.922 E0.0004
G1 X35.046 Y-14.404 E0.0751
G1 X35.133 Y-14.317 E0.0020
G1 X35.224 Y-14.096 E0.0040
G1 X35.224 Y-6.064 E0.1336
G1 X35.133 Y-5.843 E0.0040
G1 X35.063 Y-5.774 E0.0016
G1 X35.063 Y-4.013 E0.0293
G1 X35.072 Y-3.992 E0.0004
G1 X35.072 Y0.676 E0.0776
G1 X35.159 Y0.763 E0.0020
G1 X35.250 Y0.983 E0.0040
G1 X35.250 Y5.862 E0.0811
G1 X35.259 Y5.882 E0.0004
G1 X35.259 Y10.837 E0.0824
G1 X35.267 Y10.858 E0.0004
G1 X35.267 Y18.890 E0.1336
G1 X35.176 Y19.111 E0.0040
G1 X35.107 Y19.180 E0.0016
G1 X35.107 Y23.871 E0.0780
G1 X35.015 Y24.091 E0.0040
G1 X32.503 Y26.603 E0.0591
G1 X32.283 Y26.695 E0.0040
G1 X24.250 Y26.695 E0.1336
G1 X24.030 Y26.603 E0.0040
G1 X24.003 Y26.577 E0.0006
G1 X23.071 Y27.509 E0.0219
G1 X22.851 Y27.600 E0.0040
G1 X0.086 Y27.600 E0.3786
G1 X-8.004 Y31.645 E0.1504
G1 X-9.718 Y35.931 E0.0768
G1 X-9.831 Y36.071 E0.0030
G1 X-12.011 Y37.547 E0.0438
G1 X-12.183 Y37.600 E0.0030
G1 X-30.776 Y37.600 E0.3092
G1 X-30.997 Y37.509 E0.0040
G1 X-33.509 Y34.997 E0.0591
G1 X-33.600 Y34.776 E0.0040
G1 X-33.600 Y24.224 E0.1755
G1 X-33.509 Y24.003 E0.0040
G1 X-30.997 Y21.491 E0.0591
G1 X-30.776 Y21.400 E0.0040
G1 X-26.600 Y21.400 E0.0695
G1 X-26.600 Y20.345 E0.0175
G1 X-28.729 Y18.217 E0.0501
G1 X-28.820 Y17.996 E0.0040
G1 X-28.820 Y-17.996 E0.5986
G1 X-28.729 Y-18.217 E0.0040
G1 X-26.600 Y-20.345 E0.0501
G1 X-26.600 Y-21.400 E0.0175
G1 X-30.776 Y-21.400 E0.0695
G1 X-30.997 Y-21.491 E0.0040
G1 X-33.509 Y-24.003 E0.0591
G1 X-33.600 Y-24.224 E0.0040
G1 X-33.600 Y-34.776 E0.1755
G1 X-33.509 Y-34.997 E0.0040
G1 X-30.997 Y-37.509 E0.0591
G1 X-30.776 Y-37.600 E0.0040
G1 X-12.183 Y-37.600 E0.3092
G1 X-12.011 Y-37.547 E0.0030
G1 X-9.831 Y-36.071 E0.0438
G1 X-9.718 Y-35.931 E0.0030
G1 X-8.004 Y-31.645 E0.0768
G1 X0.086 Y-27.600 E0.1504
G1 X-0.009 Y-27.200 F4200
G1 X22.771 Y-27.200 E0.3788 F1800
G1 X22.845 Y-27.170 E0.0013
G1 X23.917 Y-26.098 E0.0252
G1 X24.187 Y-26.368 E0.0064
G1 X24.261 Y-26.399 E0.0013
G1 X32.134 Y-26.399 E0.1309
G1 X32.207 Y-26.368 E0.0013
G1 X34.607 Y-23.969 E0.0564
G1 X34.637 Y-23.895 E0.0013
G1 X34.637 Y-18.863 E0.0837
G1 X34.646 Y-18.842 E0.0004
G1 X34.646 Y-14.238 E0.0766
G1 X34.794 Y-14.090 E0.0035
G1 X34.824 Y-14.017 E0.0013
G1 X34.824 Y-6.144 E0.1309
G1 X34.794 Y-6.070 E0.0013
G1 X34.663 Y-5.940 E0.0031
G1 X34.663 Y-3.934 E0.0334
G1 X34.672 Y-3.912 E0.0004
G1 X34.672 Y0.842 E0.0791
G1 X34.820 Y0.989 E0.0035
G1 X34.850 Y1.063 E0.0013
G1 X34.850 Y5.941 E0.0811
G1 X34.859 Y5.962 E0.0004
G1 X34.859 Y10.916 E0.0824
G1 X34.867 Y10.937 E0.0004
G1 X34.867 Y18.811 E0.1309
G1 X34.837 Y18.884 E0.0013
G1 X34.707 Y19.015 E0.0031
G1 X34.707 Y23.791 E0.0794
G1 X34.676 Y23.865 E0.0013
G1 X32.277 Y26.264 E0.0564
G1 X32.203 Y26.295 E0.0013
G1 X24.330 Y26.295 E0.1309
G1 X24.256 Y26.264 E0.0013
G1 X24.003 Y26.011 E0.0060
G1 X22.845 Y27.170 E0.0272
G1 X22.771 Y27.200 E0.0013
G1 X-0.009 Y27.200 E0.3788
G1 X-8.318 Y31.355 E0.1545
G1 X-10.067 Y35.727 E0.0783
G1 X-10.105 Y35.773 E0.0010
G1 X-12.186 Y37.182 E0.0418
G1 X-12.243 Y37.200 E0.0010
G1 X-30.697 Y37.200 E0.3069
G1 X-30.770 Y37.170 E0.0013
G1 X-33.170 Y34.770 E0.0564
G1 X-33.200 Y34.697 E0.0013
G1 X-33.200 Y24.303 E0.1728
G1 X-33.170 Y24.230 E0.0013
G1 X-30.770 Y21.830 E0.0564
G1 X-30.697 Y21.800 E0.0013
G1 X-26.200 Y21.800 E0.0748
G1 X-26.200 Y20.180 E0.0269
G1 X-28.390 Y17.990 E0.0515
G1 X-28.420 Y17.917 E0.0013
G1 X-28.420 Y-17.917 E0.5959
G1 X-28.390 Y-17.990 E0.0013
G1 X-26.200 Y-20.180 E0.0515
G1 X-26.200 Y-21.800 E0.0269
G1 X-30.697 Y-21.800 E0.0748
G1 X-30.770 Y-21.830 E0.0013
G1 X-33.170 Y-24.230 E0.0564
G1 X-33.200 Y-24.303 E0.0013
G1 X-33.200 Y-34.697 E0.1728
G1 X-33.170 Y-34.770 E0.0013
G1 X-30.770 Y-37.170 E0.0564
G1 X-30.697 Y-37.200 E0.0013
G1 X-12.243 Y-37.200 E0.3069
G1 X-12.186 Y-37.182 E0.0010
G1 X-10.105 Y-35.773 E0.0418
G1 X-10.067 Y-35.727 E0.0010
G1 X-8.318 Y-31.355 E0.0783
G1 X-0.009 Y-27.200 E0.1545
G1 E-1.0000 F1200
; inner perimeter
