; G-Code generated by Simplify3D(R) Version 4.0.1
; Jun 30, 2018 at 2:53:31 PM
; Settings Summary
;   processName,Process1
;   applyToModels,bracket
;   profileName,Qidi Technology Qidi Tech I Greg's
;   profileVersion,2016-08-03 08:00:00
;   baseProfile,Qidi Technology Qidi Tech I (modified)
;   printMaterial,PLA
;   printQuality,Medium
;   printExtruders,Both Extruders
;   extruderName,Right Extruder,Left Extruder
;   extruderToolheadNumber,0,1
;   extruderDiameter,0.4,0.4
;   extruderAutoWidth,0,0
;   extruderWidth,0.4,0.4
;   extrusionMultiplier,0.9,0.9
;   extruderUseRetract,1,1
;   extruderRetractionDistance,1,1
;   extruderExtraRestartDistance,0,0
;   extruderRetractionZLift,0,0
;   extruderRetractionSpeed,1200,1200
;   extruderUseCoasting,0,0
;   extruderCoastingDistance,0.2,0.2
;   extruderUseWipe,0,0
;   extruderWipeDistance,5,5
;   primaryExtruder,1
;   layerHeight,0.2
;   topSolidLayers,3
;   bottomSolidLayers,3
;   perimeterOutlines,2
;   printPerimetersInsideOut,1
;   startPointOption,2
;   startPointOriginX,0
;   startPointOriginY,0
;   sequentialIslands,0
;   spiralVaseMode,0
;   firstLayerHeightPercentage,90
;   firstLayerWidthPercentage,100
;   firstLayerUnderspeed,0.5
;   useRaft,0
;   raftExtruder,0
;   raftTopLayers,3
;   raftBaseLayers,2
;   raftOffset,3
;   raftSeparationDistance,0.14
;   raftTopInfill,100
;   aboveRaftSpeedMultiplier,0.3
;   useSkirt,0
;   skirtExtruder,0
;   skirtLayers,1
;   skirtOutlines,2
;   skirtOffset,4
;   usePrimePillar,0
;   primePillarExtruder,999
;   primePillarWidth,12
;   primePillarLocation,7
;   primePillarSpeedMultiplier,1
;   useOozeShield,1
;   oozeShieldExtruder,999
;   oozeShieldOffset,2
;   oozeShieldOutlines,1
;   oozeShieldSidewallShape,1
;   oozeShieldSidewallAngle,30
;   oozeShieldSpeedMultiplier,1
;   infillExtruder,1
;   internalInfillPattern,Rectilinear
;   externalInfillPattern,Rectilinear
;   infillPercentage,20
;   outlineOverlapPercentage,20
;   infillExtrusionWidthPercentage,100
;   minInfillLength,5
;   infillLayerInterval,1
;   internalInfillAngles,45,-45
;   overlapInternalInfillAngles,0
;   externalInfillAngles,45,-45
;   generateSupport,1
;   supportExtruder,0
;   supportInfillPercentage,30
;   supportExtraInflation,0
;   supportBaseLayers,0
;   denseSupportExtruder,1
;   denseSupportLayers,0
;   denseSupportInfillPercentage,70
;   supportLayerInterval,1
;   supportHorizontalPartOffset,0.3
;   supportUpperSeparationLayers,1
;   supportLowerSeparationLayers,1
;   supportType,0
;   supportGridSpacing,4
;   maxOverhangAngle,45
;   supportAngles,0
;   temperatureName,Right Extruder,Left Extruder,Heated Build Platform
;   temperatureNumber,0,1,0
;   temperatureSetpointCount,1,1,1
;   temperatureSetpointLayers,1,1,1
;   temperatureSetpointTemperatures,215,215,65
;   temperatureStabilizeAtStartup,0,0,0
;   temperatureHeatedBed,0,0,1
;   temperatureRelayBetweenLayers,0,0,0
;   temperatureRelayBetweenLoops,0,0,0
;   fanLayers,1,2
;   fanSpeeds,0,100
;   blipFanToFullPower,0
;   adjustSpeedForCooling,1
;   minSpeedLayerTime,15
;   minCoolingSpeedSlowdown,20
;   increaseFanForCooling,0
;   minFanLayerTime,45
;   maxCoolingFanSpeed,100
;   increaseFanForBridging,1
;   bridgingFanSpeed,100
;   use5D,1
;   relativeEdistances,1
;   allowEaxisZeroing,0
;   independentExtruderAxes,1
;   includeM10123,0
;   stickySupport,1
;   applyToolheadOffsets,0
;   gcodeXoffset,0
;   gcodeYoffset,0
;   gcodeZoffset,0
;   overrideMachineDefinition,1
;   machineTypeOverride,0
;   strokeXoverride,225
;   strokeYoverride,145
;   strokeZoverride,150
;   originOffsetXoverride,112.5
;   originOffsetYoverride,72.5
;   originOffsetZoverride,0
;   homeXdirOverride,1
;   homeYdirOverride,1
;   homeZdirOverride,-1
;   flipXoverride,1
;   flipYoverride,-1
;   flipZoverride,1
;   toolheadOffsets,0,0|34,0|0,0|0,0|0,0|0,0
;   overrideFirmwareConfiguration,1
;   firmwareTypeOverride,MakerBot/Sailfish Firmware
;   GPXconfigOverride,r1d
;   baudRateOverride,115200
;   overridePrinterModels,1
;   printerModelsOverride,MakerBot_Replicator1.stl
;   startingGcode,M73 P0 ; Enable build progress,G162 X Y F3000 ; Home XY maximum,G161 Z F1200 ; Home Z minimum,G92 X0 Y0 Z0 Z-5 A0 B0 ; Set Z to -5,G1 Z0 ; Move Z to 0,G161 Z F100 ; Home Z slowly,M132 X Y Z ; Recall home offsets,M135 T0 ; Load right extruder offsets,G1 X-110 Y-70 Z30 F9000 ; Move to wait position off table,G130 X20 Y20 Z20 A20 B20 ; Lower stepper Vrefs while heating,M126 S[fan_speed_pwm] ; Set fan speed,M140 S[bed0_temperature] T0 ; Heat buildplate ,M104 S[extruder0_temperature] T0 ; Heat right extruder,M104 S[extruder1_temperature] T1 ; Heat left extruder,M134 T0 ; Stabilize bed temperature,M133 T0 ; Stabilize right extruder temperature,M133 T1 ; Stabilize left extruder temperature,G130 X127 Y127 Z40 A127 B127 ; Default stepper Vrefs,G92 A0 B0 ; Zero extruders,G1 X100 Y-70 F9000 ; Move to front right corner of bed,G1 Z0.3 F6000 ; Move down to purge,G1 X-90 Y-70 E24 F2000 ; Extrude a line of filament across the front edge of the bed,G1 X-100 Y-70 F180 ; Wait for ooze,G1 X-110 Y-70 F5000 ; Fast wipe,G1 Z0.5 F100 ; Lift,G92 A0 B0 ; Zero extruders,M135 T1 ; Load left extruder offsets,G1 X-100 Y-68 F9000 ; Move to front left corner of bed,G1 Z0.3 F6000 ; Move down to purge,G1 X90 Y-68 E24 F2000 ; Extrude a line of filament across the front edge of the bed,G1 X100 Y-68 F180 ; Wait for ooze,G1 X110 Y-68 F5000 ; Fast wipe,G1 Z1 F100 ; Lift,G92 A0 B0 ; Zero extruders,M73 P1 ; @body (notify GPX body has started)
;   layerChangeGcode,
;   retractionGcode,
;   toolChangeGcode,
;   endingGcode,M73 P100 ; end build progress,G1 Z150 F1000 ; send Z axis to bottom of machine,M140 S0 T0 ; cool down HBP,M104 S0 T0 ; cool down right extruder,M104 S0 T1 ; cool down left extruder,M127 ; stop blower fan,G162 X Y F3000 ; home XY maximum,M18 ; disable stepper,M72 P1 ; play Ta-Da song
;   exportFileFormat,x3g
;   celebration,0
;   celebrationSong,Random Song
;   postProcessing,
;   defaultSpeed,3600
;   outlineUnderspeed,0.5
;   solidInfillUnderspeed,0.8
;   supportUnderspeed,0.8
;   rapidXYspeed,4200
;   rapidZspeed,1200
;   minBridgingArea,50
;   bridgingExtraInflation,0
;   bridgingExtrusionMultiplier,1
;   bridgingSpeedMultiplier,0.8
;   useFixedBridgingAngle,0
;   fixedBridgingAngle,0
;   applyBridgingToPerimeters,0
;   filamentDiameters,1.75|1.75|1.75|1.75|1.75|1.75
;   filamentPricesPerKg,46|46|46|46|46|46
;   filamentDensities,1.25|1.25|1.25|1.25|1.25|1.25
;   useMinPrintHeight,0
;   minPrintHeight,0
;   useMaxPrintHeight,0
;   maxPrintHeight,0
;   useDiaphragm,0
;   diaphragmLayerInterval,20
;   robustSlicing,1
;   mergeAllIntoSolid,0
;   onlyRetractWhenCrossingOutline,1
;   retractBetweenLayers,1
;   useRetractionMinTravel,0
;   retractionMinTravel,3
;   retractWhileWiping,0
;   onlyWipeOutlines,1
;   avoidCrossingOutline,0
;   maxMovementDetourFactor,3
;   toolChangeRetractionDistance,12
;   toolChangeExtraRestartDistance,-0.5
;   toolChangeRetractionSpeed,600
;   externalThinWallType,0
;   internalThinWallType,2
;   thinWallAllowedOverlapPercentage,10
;   singleExtrusionMinLength,1
;   singleExtrusionMinPrintingWidthPercentage,50
;   singleExtrusionMaxPrintingWidthPercentage,200
;   singleExtrusionEndpointExtension,0.2
;   horizontalSizeCompensation,0
G90
M83
M73 P0 ; Enable build progress
G162 X Y F3000 ; Home XY maximum
G161 Z F1200 ; Home Z minimum
G92 X0 Y0 Z0 Z-5 A0 B0 ; Set Z to -5
G1 Z0 ; Move Z to 0
G161 Z F100 ; Home Z slowly
M132 X Y Z ; Recall home offsets
M135 T0 ; Load right extruder offsets
G1 X-110 Y-70 Z30 F9000 ; Move to wait position off table
G130 X20 Y20 Z20 A20 B20 ; Lower stepper Vrefs while heating
M127 ; Set fan speed
M140 S65 T0 ; Heat buildplate 
M104 S215 T0 ; Heat right extruder
M104 S215 T1 ; Heat left extruder
M134 T0 ; Stabilize bed temperature
M133 T0 ; Stabilize right extruder temperature
M133 T1 ; Stabilize left extruder temperature
G130 X127 Y127 Z40 A127 B127 ; Default stepper Vrefs
G92 A0 B0 ; Zero extruders
G1 X100 Y-70 F9000 ; Move to front right corner of bed
G1 Z0.3 F6000 ; Move down to purge
G1 X-90 Y-70 E24 F2000 ; Extrude a line of filament across the front edge of the bed
G1 X-100 Y-70 F180 ; Wait for ooze
G1 X-110 Y-70 F5000 ; Fast wipe
G1 Z0.5 F100 ; Lift
G92 A0 B0 ; Zero extruders
M135 T1 ; Load left extruder offsets
G1 X-100 Y-68 F9000 ; Move to front left corner of bed
G1 Z0.3 F6000 ; Move down to purge
G1 X90 Y-68 E24 F2000 ; Extrude a line of filament across the front edge of the bed
G1 X100 Y-68 F180 ; Wait for ooze
G1 X110 Y-68 F5000 ; Fast wipe
G1 Z1 F100 ; Lift
G92 A0 B0 ; Zero extruders
M73 P1 ; @body (notify GPX body has started)
G1 E-1.0000 F1200
G1 Z0.180 F1200
; process Process1
; layer 1, Z = 0.180
M135 T1
; tool H0.200 W0.400
; inner perimeter
G1 X-15.100 Y15.050 F4200
G1 E1.0000 F360
G1 X-15.100 Y26.600 E0.3457 F1350
G1 X-6.358 Y26.600 E0.2617
G1 X3.642 Y21.600 E0.3347
G1 X22.900 Y21.600 E0.5765
G1 X22.900 Y22.400 E0.0239
G1 X4.358 Y22.400 E0.5550
G1 X-5.642 Y27.400 E0.3347
G1 X-8.749 Y27.400 E0.0930
G1 X-13.749 Y32.400 E0.2117
G1 X-22.900 Y32.400 E0.2739
G1 X-22.900 Y26.600 E0.1736
G1 X-15.900 Y26.600 E0.2095
G1 X-15.900 Y15.050 E0.3457
G1 X-15.100 Y15.050 E0.0239
; outer perimeter
G1 X-14.700 Y14.650 F4200
G1 X-14.700 Y26.200 E0.3457 F900
G1 X-6.453 Y26.200 E0.2469
G1 X3.547 Y21.200 E0.3347
G1 X23.300 Y21.200 E0.5913
G1 X23.300 Y22.800 E0.0479
G1 X4.453 Y22.800 E0.5642
G1 X-5.547 Y27.800 E0.3347
G1 X-8.583 Y27.800 E0.0909
G1 X-13.583 Y32.800 E0.2117
G1 X-23.300 Y32.800 E0.2909
G1 X-23.300 Y26.200 E0.1976
G1 X-16.300 Y26.200 E0.2095
G1 X-16.300 Y14.650 E0.3457
G1 X-14.700 Y14.650 E0.0479
; solid layer
G1 X-15.420 Y15.693 F4200
G1 X-15.580 Y15.533 E0.0068 F1440
G1 X-15.580 Y16.098 E0.0169
G1 X-15.420 Y16.258 E0.0068
G1 X-15.420 Y16.824 E0.0169
G1 X-15.580 Y16.664 E0.0068
G1 X-15.580 Y17.230 E0.0169
G1 X-15.420 Y17.390 E0.0068
G1 X-15.420 Y17.955 E0.0169
G1 X-15.580 Y17.795 E0.0068
G1 X-15.580 Y18.361 E0.0169
G1 X-15.420 Y18.521 E0.0068
G1 X-15.420 Y19.087 E0.0169
G1 X-15.580 Y18.927 E0.0068
G1 X-15.580 Y19.492 E0.0169
G1 X-15.420 Y19.652 E0.0068
G1 X-15.420 Y20.218 E0.0169
G1 X-15.580 Y20.058 E0.0068
G1 X-15.580 Y20.624 E0.0169
G1 X-15.420 Y20.784 E0.0068
G1 X-15.420 Y21.350 E0.0169
G1 X-15.580 Y21.190 E0.0068
G1 X-15.580 Y21.755 E0.0169
G1 X-15.420 Y21.915 E0.0068
G1 X-15.420 Y22.481 E0.0169
G1 X-15.580 Y22.321 E0.0068
G1 X-15.580 Y22.887 E0.0169
G1 X-15.420 Y23.047 E0.0068
G1 X-15.420 Y23.612 E0.0169
G1 X-15.580 Y23.452 E0.0068
G1 X-15.580 Y24.018 E0.0169
G1 X-15.420 Y24.178 E0.0068
G1 X-15.420 Y24.744 E0.0169
G1 X-15.580 Y24.584 E0.0068
G1 X-15.580 Y25.149 E0.0169
G1 X-15.420 Y25.309 E0.0068
G1 X-15.420 Y25.875 E0.0169
G1 X-15.580 Y25.715 E0.0068
G1 X-15.580 Y26.281 E0.0169
G1 X-15.420 Y26.441 E0.0068
G1 X-15.420 Y26.920 E0.0143
G1 X-14.941 Y26.920 E0.0143
G1 X-11.831 Y30.030 E0.1316
G1 X-11.548 Y29.747 E0.0120
G1 X-14.375 Y26.920 E0.1197
G1 X-13.809 Y26.920 E0.0169
G1 X-11.265 Y29.464 E0.1077
G1 X-10.982 Y29.181 E0.0120
G1 X-13.244 Y26.920 E0.0957
G1 X-12.678 Y26.920 E0.0169
G1 X-10.700 Y28.898 E0.0838
G1 X-10.417 Y28.616 E0.0120
G1 X-12.112 Y26.920 E0.0718
G1 X-11.547 Y26.920 E0.0169
G1 X-10.134 Y28.333 E0.0598
G1 X-9.851 Y28.050 E0.0120
G1 X-10.981 Y26.920 E0.0478
G1 X-10.415 Y26.920 E0.0169
G1 X-9.568 Y27.767 E0.0359
G1 X-9.285 Y27.484 E0.0120
G1 X-9.850 Y26.920 E0.0239
G1 X-9.284 Y26.920 E0.0169
G1 X-9.002 Y27.201 E0.0119
G1 X-8.881 Y27.080 E0.0051
G1 X-8.558 Y27.080 E0.0097
G1 X-8.718 Y26.920 E0.0068
G1 X-8.152 Y26.920 E0.0169
G1 X-7.992 Y27.080 E0.0068
G1 X-7.427 Y27.080 E0.0169
G1 X-7.587 Y26.920 E0.0068
G1 X-7.021 Y26.920 E0.0169
G1 X-6.861 Y27.080 E0.0068
G1 X-6.295 Y27.080 E0.0169
G1 X-6.455 Y26.920 E0.0068
G1 X-6.283 Y26.920 E0.0052
G1 X-6.021 Y26.789 E0.0088
G1 X-5.730 Y27.080 E0.0123
G1 X-5.717 Y27.080 E0.0004
G1 X-5.348 Y26.896 E0.0123
G1 X-5.644 Y26.600 E0.0125
G1 X-5.267 Y26.412 E0.0126
G1 X-4.971 Y26.707 E0.0125
G1 X-4.594 Y26.518 E0.0126
G1 X-4.889 Y26.223 E0.0125
G1 X-4.512 Y26.035 E0.0126
G1 X-4.217 Y26.330 E0.0125
G1 X-3.840 Y26.141 E0.0126
G1 X-4.135 Y25.846 E0.0125
G1 X-3.758 Y25.658 E0.0126
G1 X-3.463 Y25.953 E0.0125
G1 X-3.086 Y25.764 E0.0126
G1 X-3.381 Y25.469 E0.0125
G1 X-3.004 Y25.280 E0.0126
G1 X-2.709 Y25.576 E0.0125
G1 X-2.331 Y25.387 E0.0126
G1 X-2.627 Y25.092 E0.0125
G1 X-2.250 Y24.903 E0.0126
G1 X-1.954 Y25.199 E0.0125
G1 X-1.577 Y25.010 E0.0126
G1 X-1.872 Y24.715 E0.0125
G1 X-1.495 Y24.526 E0.0126
G1 X-1.200 Y24.821 E0.0125
G1 X-0.823 Y24.633 E0.0126
G1 X-1.118 Y24.338 E0.0125
G1 X-0.741 Y24.149 E0.0126
G1 X-0.446 Y24.444 E0.0125
G1 X-0.069 Y24.256 E0.0126
G1 X-0.364 Y23.961 E0.0125
G1 X0.013 Y23.772 E0.0126
G1 X0.308 Y24.067 E0.0125
G1 X0.686 Y23.879 E0.0126
G1 X0.390 Y23.583 E0.0125
G1 X0.767 Y23.395 E0.0126
G1 X1.063 Y23.690 E0.0125
G1 X1.440 Y23.502 E0.0126
G1 X1.145 Y23.206 E0.0125
G1 X1.522 Y23.018 E0.0126
G1 X1.817 Y23.313 E0.0125
G1 X2.194 Y23.124 E0.0126
G1 X1.899 Y22.829 E0.0125
G1 X2.276 Y22.641 E0.0126
G1 X2.571 Y22.936 E0.0125
G1 X2.948 Y22.747 E0.0126
G1 X2.653 Y22.452 E0.0125
G1 X3.030 Y22.263 E0.0126
G1 X3.325 Y22.559 E0.0125
G1 X3.703 Y22.370 E0.0126
G1 X3.407 Y22.075 E0.0125
G1 X3.717 Y21.920 E0.0104
G1 X3.818 Y21.920 E0.0030
G1 X4.080 Y22.182 E0.0111
G1 X4.283 Y22.080 E0.0068
G1 X4.544 Y22.080 E0.0078
G1 X4.384 Y21.920 E0.0068
G1 X4.949 Y21.920 E0.0169
G1 X5.109 Y22.080 E0.0068
G1 X5.675 Y22.080 E0.0169
G1 X5.515 Y21.920 E0.0068
G1 X6.081 Y21.920 E0.0169
G1 X6.241 Y22.080 E0.0068
G1 X6.807 Y22.080 E0.0169
G1 X6.647 Y21.920 E0.0068
G1 X7.212 Y21.920 E0.0169
G1 X7.372 Y22.080 E0.0068
G1 X7.938 Y22.080 E0.0169
G1 X7.778 Y21.920 E0.0068
G1 X8.344 Y21.920 E0.0169
G1 X8.504 Y22.080 E0.0068
G1 X9.069 Y22.080 E0.0169
G1 X8.909 Y21.920 E0.0068
G1 X9.475 Y21.920 E0.0169
G1 X9.635 Y22.080 E0.0068
G1 X10.201 Y22.080 E0.0169
G1 X10.041 Y21.920 E0.0068
G1 X10.606 Y21.920 E0.0169
G1 X10.766 Y22.080 E0.0068
G1 X11.332 Y22.080 E0.0169
G1 X11.172 Y21.920 E0.0068
G1 X11.738 Y21.920 E0.0169
G1 X11.898 Y22.080 E0.0068
G1 X12.463 Y22.080 E0.0169
G1 X12.303 Y21.920 E0.0068
G1 X12.869 Y21.920 E0.0169
G1 X13.029 Y22.080 E0.0068
G1 X13.595 Y22.080 E0.0169
G1 X13.435 Y21.920 E0.0068
G1 X14.000 Y21.920 E0.0169
G1 X14.160 Y22.080 E0.0068
G1 X14.726 Y22.080 E0.0169
G1 X14.566 Y21.920 E0.0068
G1 X15.132 Y21.920 E0.0169
G1 X15.292 Y22.080 E0.0068
G1 X15.857 Y22.080 E0.0169
G1 X15.697 Y21.920 E0.0068
G1 X16.263 Y21.920 E0.0169
G1 X16.423 Y22.080 E0.0068
G1 X16.989 Y22.080 E0.0169
G1 X16.829 Y21.920 E0.0068
G1 X17.395 Y21.920 E0.0169
G1 X17.555 Y22.080 E0.0068
G1 X18.120 Y22.080 E0.0169
G1 X17.960 Y21.920 E0.0068
G1 X18.526 Y21.920 E0.0169
G1 X18.686 Y22.080 E0.0068
G1 X19.252 Y22.080 E0.0169
G1 X19.092 Y21.920 E0.0068
G1 X19.657 Y21.920 E0.0169
G1 X19.817 Y22.080 E0.0068
G1 X20.383 Y22.080 E0.0169
G1 X20.223 Y21.920 E0.0068
G1 X20.789 Y21.920 E0.0169
G1 X20.949 Y22.080 E0.0068
G1 X21.514 Y22.080 E0.0169
G1 X21.354 Y21.920 E0.0068
G1 X21.920 Y21.920 E0.0169
G1 X22.080 Y22.080 E0.0068
G1 X22.580 Y22.080 E0.0150
G1 X22.580 Y22.014 E0.0020
G1 X22.486 Y21.920 E0.0040
G1 E-1.0000 F1200
G1 X-15.580 Y26.846 F4200
G1 E1.0000 F1200
G1 X-12.114 Y30.313 E0.1467 F1440
G1 X-12.397 Y30.596 E0.0120
G1 X-16.072 Y26.920 E0.1556
G1 X-16.638 Y26.920 E0.0169
G1 X-12.679 Y30.878 E0.1676
G1 X-12.962 Y31.161 E0.0120
G1 X-17.203 Y26.920 E0.1795
G1 X-17.769 Y26.920 E0.0169
G1 X-13.245 Y31.444 E0.1915
G1 X-13.528 Y31.727 E0.0120
G1 X-18.335 Y26.920 E0.2035
G1 X-18.901 Y26.920 E0.0169
G1 X-13.811 Y32.010 E0.2155
G1 X-13.881 Y32.080 E0.0030
G1 X-14.306 Y32.080 E0.0127
G1 X-19.466 Y26.920 E0.2184
G1 X-20.032 Y26.920 E0.0169
G1 X-14.872 Y32.080 E0.2184
G1 X-15.438 Y32.080 E0.0169
G1 X-20.598 Y26.920 E0.2184
G1 X-21.163 Y26.920 E0.0169
G1 X-16.003 Y32.080 E0.2184
G1 X-16.569 Y32.080 E0.0169
G1 X-21.729 Y26.920 E0.2184
G1 X-22.295 Y26.920 E0.0169
G1 X-17.135 Y32.080 E0.2184
G1 X-17.700 Y32.080 E0.0169
G1 X-22.580 Y27.200 E0.2066
G1 X-22.580 Y27.766 E0.0169
G1 X-18.266 Y32.080 E0.1826
G1 X-18.832 Y32.080 E0.0169
G1 X-22.580 Y28.332 E0.1587
