; G-Code generated by Simplify3D(R) Version 4.0.1
; Jun 28, 2018 at 7:51:03 PM
; Settings Summary
;   processName,Process1
;   applyToModels,faceplate,display
;   profileName,Qidi Technology Qidi Tech I
;   profileVersion,2016-08-03 08:00:00
;   baseProfile,
;   printMaterial,PLA
;   printQuality,Medium
;   printExtruders,Right Extruder Only
;   extruderName,Right Extruder,Left Extruder
;   extruderToolheadNumber,0,1
;   extruderDiameter,0.4,0.4
;   extruderAutoWidth,0,0
;   extruderWidth,0.4,0.4
;   extrusionMultiplier,0.9,0.9
;   extruderUseRetract,1,1
;   extruderRetractionDistance,1,1
;   extruderExtraRestartDistance,0,0
;   extruderRetractionZLift,0,0
;   extruderRetractionSpeed,1200,1200
;   extruderUseCoasting,0,0
;   extruderCoastingDistance,0.2,0.2
;   extruderUseWipe,0,0
;   extruderWipeDistance,5,5
;   primaryExtruder,0
;   layerHeight,0.2
;   topSolidLayers,3
;   bottomSolidLayers,3
;   perimeterOutlines,2
;   printPerimetersInsideOut,1
;   startPointOption,2
;   startPointOriginX,0
;   startPointOriginY,0
;   sequentialIslands,0
;   spiralVaseMode,0
;   firstLayerHeightPercentage,90
;   firstLayerWidthPercentage,100
;   firstLayerUnderspeed,0.5
;   useRaft,0
;   raftExtruder,0
;   raftTopLayers,3
;   raftBaseLayers,2
;   raftOffset,3
;   raftSeparationDistance,0.14
;   raftTopInfill,100
;   aboveRaftSpeedMultiplier,0.3
;   useSkirt,1
;   skirtExtruder,0
;   skirtLayers,1
;   skirtOutlines,2
;   skirtOffset,4
;   usePrimePillar,0
;   primePillarExtruder,999
;   primePillarWidth,12
;   primePillarLocation,7
;   primePillarSpeedMultiplier,1
;   useOozeShield,0
;   oozeShieldExtruder,999
;   oozeShieldOffset,2
;   oozeShieldOutlines,1
;   oozeShieldSidewallShape,1
;   oozeShieldSidewallAngle,30
;   oozeShieldSpeedMultiplier,1
;   infillExtruder,0
;   internalInfillPattern,Rectilinear
;   externalInfillPattern,Rectilinear
;   infillPercentage,20
;   outlineOverlapPercentage,20
;   infillExtrusionWidthPercentage,100
;   minInfillLength,5
;   infillLayerInterval,1
;   internalInfillAngles,45,-45
;   overlapInternalInfillAngles,0
;   externalInfillAngles,45,-45
;   generateSupport,0
;   supportExtruder,0
;   supportInfillPercentage,30
;   supportExtraInflation,0
;   supportBaseLayers,0
;   denseSupportExtruder,0
;   denseSupportLayers,0
;   denseSupportInfillPercentage,70
;   supportLayerInterval,1
;   supportHorizontalPartOffset,0.3
;   supportUpperSeparationLayers,1
;   supportLowerSeparationLayers,1
;   supportType,0
;   supportGridSpacing,4
;   maxOverhangAngle,45
;   supportAngles,0
;   temperatureName,Right Extruder,Left Extruder,Heated Build Platform
;   temperatureNumber,0,1,0
;   temperatureSetpointCount,1,1,1
;   temperatureSetpointLayers,1,1,1
;   temperatureSetpointTemperatures,215,0,60
;   temperatureStabilizeAtStartup,0,0,0
;   temperatureHeatedBed,0,0,1
;   temperatureRelayBetweenLayers,0,0,0
;   temperatureRelayBetweenLoops,0,0,0
;   fanLayers,1,2
;   fanSpeeds,0,100
;   blipFanToFullPower,0
;   adjustSpeedForCooling,1
;   minSpeedLayerTime,15
;   minCoolingSpeedSlowdown,20
;   increaseFanForCooling,0
;   minFanLayerTime,45
;   maxCoolingFanSpeed,100
;   increaseFanForBridging,1
;   bridgingFanSpeed,100
;   use5D,1
;   relativeEdistances,1
;   allowEaxisZeroing,0
;   independentExtruderAxes,1
;   includeM10123,0
;   stickySupport,1
;   applyToolheadOffsets,0
;   gcodeXoffset,0
;   gcodeYoffset,0
;   gcodeZoffset,0
;   overrideMachineDefinition,1
;   machineTypeOverride,0
;   strokeXoverride,225
;   strokeYoverride,145
;   strokeZoverride,150
;   originOffsetXoverride,112.5
;   originOffsetYoverride,72.5
;   originOffsetZoverride,0
;   homeXdirOverride,1
;   homeYdirOverride,1
;   homeZdirOverride,-1
;   flipXoverride,1
;   flipYoverride,-1
;   flipZoverride,1
;   toolheadOffsets,0,0|34,0|0,0|0,0|0,0|0,0
;   overrideFirmwareConfiguration,1
;   firmwareTypeOverride,MakerBot/Sailfish Firmware
;   GPXconfigOverride,r1d
;   baudRateOverride,115200
;   overridePrinterModels,1
;   printerModelsOverride,MakerBot_Replicator1.stl
;   startingGcode,M73 P0 ; Enable build progress,G162 X Y F3000 ; Home XY maximum,G161 Z F1200 ; Home Z minimum,G92 X0 Y0 Z0 Z-5 A0 B0 ; Set Z to -5,G1 Z0 ; Move Z to 0,G161 Z F100 ; Home Z slowly,M132 X Y Z ; Recall home offsets,M135 T0 ; Load right extruder offsets,G1 X-110 Y-70 Z30 F9000 ; Move to wait position off table,G130 X20 Y20 Z20 A20 B20 ; Lower stepper Vrefs while heating,M126 S[fan_speed_pwm] ; Set fan speed,M140 S[bed0_temperature] T0 ; Heat buildplate ,M104 S[extruder0_temperature] T0 ; Heat right extruder,M134 T0 ; Stabilize bed temperature,M133 T0 ; Stabilize right extruder temperature,G130 X127 Y127 Z40 A127 B127 ; Default stepper Vrefs,G92 A0 B0 ; Zero extruders,G1 X100 Y-70 F9000 ; Move to front right corner of bed,G1 Z0.3 F6000 ; Move down to purge,G1 X-90 Y-70 E24 F2000 ; Extrude a line of filament across the front edge of the bed,G1 X-100 Y-70 F180 ; Wait for ooze,G1 X-110 Y-70 F5000 ; Fast wipe,G1 Z0.5 F100 ; Lift,M73 P1 ; @body (notify GPX body has started)
;   layerChangeGcode,
;   retractionGcode,
;   toolChangeGcode,
;   endingGcode,M73 P100 ; end build progress,G1 Z150 F1000 ; send Z axis to bottom of machine,M140 S0 T0 ; cool down HBP,M104 S0 T0 ; cool down right extruder,M104 S0 T1 ; cool down left extruder,M127 ; stop blower fan,G162 X Y F3000 ; home XY maximum,M18 ; disable stepper,M72 P1 ; play Ta-Da song
;   exportFileFormat,x3g
;   celebration,0
;   celebrationSong,Random Song
;   postProcessing,
;   defaultSpeed,3600
;   outlineUnderspeed,0.5
;   solidInfillUnderspeed,0.8
;   supportUnderspeed,0.8
;   rapidXYspeed,4200
;   rapidZspeed,1200
;   minBridgingArea,50
;   bridgingExtraInflation,0
;   bridgingExtrusionMultiplier,1
;   bridgingSpeedMultiplier,0.8
;   useFixedBridgingAngle,0
;   fixedBridgingAngle,0
;   applyBridgingToPerimeters,0
;   filamentDiameters,1.75|1.75|1.75|1.75|1.75|1.75
;   filamentPricesPerKg,46|46|46|46|46|46
;   filamentDensities,1.25|1.25|1.25|1.25|1.25|1.25
;   useMinPrintHeight,0
;   minPrintHeight,0
;   useMaxPrintHeight,0
;   maxPrintHeight,0
;   useDiaphragm,0
;   diaphragmLayerInterval,20
;   robustSlicing,1
;   mergeAllIntoSolid,0
;   onlyRetractWhenCrossingOutline,1
;   retractBetweenLayers,1
;   useRetractionMinTravel,0
;   retractionMinTravel,3
;   retractWhileWiping,0
;   onlyWipeOutlines,1
;   avoidCrossingOutline,0
;   maxMovementDetourFactor,3
;   toolChangeRetractionDistance,12
;   toolChangeExtraRestartDistance,-0.5
;   toolChangeRetractionSpeed,600
;   externalThinWallType,0
;   internalThinWallType,2
;   thinWallAllowedOverlapPercentage,10
;   singleExtrusionMinLength,1
;   singleExtrusionMinPrintingWidthPercentage,50
;   singleExtrusionMaxPrintingWidthPercentage,200
;   singleExtrusionEndpointExtension,0.2
;   horizontalSizeCompensation,0
G90
M83
M73 P0 ; Enable build progress
G162 X Y F3000 ; Home XY maximum
G161 Z F1200 ; Home Z minimum
G92 X0 Y0 Z0 Z-5 A0 B0 ; Set Z to -5
G1 Z0 ; Move Z to 0
G161 Z F100 ; Home Z slowly
M132 X Y Z ; Recall home offsets
M135 T0 ; Load right extruder offsets
G1 X-110 Y-70 Z30 F9000 ; Move to wait position off table
G130 X20 Y20 Z20 A20 B20 ; Lower stepper Vrefs while heating
M127 ; Set fan speed
M140 S60 T0 ; Heat buildplate 
M104 S215 T0 ; Heat right extruder
M134 T0 ; Stabilize bed temperature
M133 T0 ; Stabilize right extruder temperature
G130 X127 Y127 Z40 A127 B127 ; Default stepper Vrefs
G92 A0 B0 ; Zero extruders
G1 X100 Y-70 F9000 ; Move to front right corner of bed
G1 Z0.3 F6000 ; Move down to purge
G1 X-90 Y-70 E24 F2000 ; Extrude a line of filament across the front edge of the bed
G1 X-100 Y-70 F180 ; Wait for ooze
G1 X-110 Y-70 F5000 ; Fast wipe
G1 Z0.5 F100 ; Lift
M73 P1 ; @body (notify GPX body has started)
G1 E-1.0000 F1200
G1 Z0.180 F1200
; process Process1
; layer 1, Z = 0.180
M135 T0
; tool H0.200 W0.400
; skirt
G1 X-0.642 Y0.037 F4200
G1 E1.0000 F360
G1 X-0.643 Y0.069 E0.0009 F1800
G1 X-1.564 Y8.833 E0.2638
G1 X-1.569 Y8.864 E0.0009
G1 X-1.663 Y9.305 E0.0135
G1 X-1.671 Y9.335 E0.0009
G1 X-4.395 Y17.717 E0.2638
G1 X-4.406 Y17.746 E0.0009
G1 X-4.589 Y18.158 E0.0135
G1 X-4.603 Y18.186 E0.0009
G1 X-9.010 Y25.818 E0.2638
G1 X-9.027 Y25.845 E0.0009
G1 X-9.292 Y26.209 E0.0135
G1 X-9.312 Y26.234 E0.0009
G1 X-15.209 Y32.783 E0.2638
G1 X-15.231 Y32.805 E0.0009
G1 X-15.566 Y33.107 E0.0135
G1 X-15.590 Y33.127 E0.0009
G1 X-22.720 Y38.307 E0.2638
G1 X-22.746 Y38.324 E0.0009
G1 X-23.137 Y38.549 E0.0135
G1 X-23.165 Y38.563 E0.0009
G1 X-31.216 Y42.148 E0.2638
G1 X-31.245 Y42.159 E0.0009
G1 X-31.674 Y42.299 E0.0135
G1 X-31.704 Y42.307 E0.0009
G1 X-40.325 Y44.139 E0.2638
G1 X-40.356 Y44.144 E0.0009
G1 X-40.804 Y44.191 E0.0135
G1 X-40.835 Y44.193 E0.0009
G1 X-49.648 Y44.193 E0.2638
G1 X-49.679 Y44.191 E0.0009
G1 X-50.128 Y44.144 E0.0135
G1 X-50.159 Y44.139 E0.0009
G1 X-58.779 Y42.307 E0.2638
G1 X-58.809 Y42.299 E0.0009
G1 X-59.238 Y42.159 E0.0135
G1 X-59.267 Y42.148 E0.0009
G1 X-67.319 Y38.563 E0.2638
G1 X-67.347 Y38.549 E0.0009
G1 X-67.737 Y38.324 E0.0135
G1 X-67.763 Y38.307 E0.0009
G1 X-74.893 Y33.127 E0.2638
G1 X-74.917 Y33.107 E0.0009
G1 X-75.252 Y32.805 E0.0135
G1 X-75.274 Y32.783 E0.0009
G1 X-81.172 Y26.234 E0.2638
G1 X-81.191 Y26.209 E0.0009
G1 X-81.456 Y25.845 E0.0135
G1 X-81.473 Y25.818 E0.0009
G1 X-85.880 Y18.186 E0.2638
G1 X-85.894 Y18.158 E0.0009
G1 X-86.077 Y17.746 E0.0135
G1 X-86.089 Y17.717 E0.0009
G1 X-88.812 Y9.335 E0.2638
G1 X-88.820 Y9.305 E0.0009
G1 X-88.914 Y8.864 E0.0135
G1 X-88.919 Y8.833 E0.0009
G1 X-89.840 Y0.069 E0.2638
G1 X-89.842 Y0.037 E0.0009
G1 X-89.842 Y-0.414 E0.0135
G1 X-89.840 Y-0.445 E0.0009
G1 X-88.919 Y-9.210 E0.2638
G1 X-88.914 Y-9.241 E0.0009
G1 X-88.820 Y-9.681 E0.0135
G1 X-88.812 Y-9.712 E0.0009
G1 X-86.089 Y-18.093 E0.2638
G1 X-86.077 Y-18.123 E0.0009
G1 X-85.894 Y-18.535 E0.0135
G1 X-85.880 Y-18.563 E0.0009
G1 X-81.473 Y-26.195 E0.2638
G1 X-81.456 Y-26.221 E0.0009
G1 X-81.191 Y-26.586 E0.0135
G1 X-81.172 Y-26.610 E0.0009
G1 X-75.274 Y-33.159 E0.2638
G1 X-75.252 Y-33.182 E0.0009
G1 X-74.917 Y-33.483 E0.0135
G1 X-74.893 Y-33.503 E0.0009
G1 X-67.763 Y-38.683 E0.2638
G1 X-67.737 Y-38.700 E0.0009
G1 X-67.347 Y-38.926 E0.0135
G1 X-67.319 Y-38.940 E0.0009
G1 X-59.267 Y-42.524 E0.2638
G1 X-59.238 Y-42.536 E0.0009
G1 X-58.810 Y-42.675 E0.0135
G1 X-58.779 Y-42.683 E0.0009
G1 X-50.159 Y-44.515 E0.2638
G1 X-50.128 Y-44.520 E0.0009
G1 X-49.679 Y-44.567 E0.0135
G1 X-49.648 Y-44.569 E0.0009
G1 X-40.835 Y-44.569 E0.2638
G1 X-40.804 Y-44.567 E0.0009
G1 X-40.356 Y-44.520 E0.0135
G1 X-40.325 Y-44.515 E0.0009
G1 X-31.704 Y-42.683 E0.2638
G1 X-31.674 Y-42.675 E0.0009
G1 X-31.245 Y-42.536 E0.0135
G1 X-31.216 Y-42.524 E0.0009
G1 X-23.165 Y-38.940 E0.2638
G1 X-23.137 Y-38.926 E0.0009
G1 X-22.746 Y-38.700 E0.0135
G1 X-22.720 Y-38.683 E0.0009
G1 X-15.590 Y-33.503 E0.2638
G1 X-15.566 Y-33.483 E0.0009
G1 X-15.231 Y-33.182 E0.0135
G1 X-15.209 Y-33.159 E0.0009
G1 X-9.312 Y-26.610 E0.2638
G1 X-9.292 Y-26.586 E0.0009
G1 X-9.027 Y-26.221 E0.0135
G1 X-9.010 Y-26.195 E0.0009
G1 X-4.603 Y-18.563 E0.2638
G1 X-4.589 Y-18.535 E0.0009
G1 X-4.406 Y-18.123 E0.0135
G1 X-4.395 Y-18.093 E0.0009
G1 X-1.671 Y-9.712 E0.2638
G1 X-1.663 Y-9.681 E0.0009
G1 X-1.569 Y-9.241 E0.0135
G1 X-1.564 Y-9.210 E0.0009
G1 X-0.643 Y-0.445 E0.2638
G1 X-0.642 Y-0.414 E0.0009
G1 X-0.642 Y0.037 E0.0135
G1 X6.606 Y19.891 F4200
G1 X6.606 Y-25.662 E1.3636 F1800
G1 X6.697 Y-25.882 E0.0071
G1 X9.209 Y-28.394 E0.1063
G1 X9.429 Y-28.485 E0.0071
G1 X62.982 Y-28.485 E1.6030
G1 X63.202 Y-28.394 E0.0071
G1 X65.714 Y-25.882 E0.1063
G1 X65.806 Y-25.662 E0.0071
G1 X65.806 Y19.891 E1.3636
G1 X65.714 Y20.111 E0.0071
G1 X63.202 Y22.623 E0.1063
G1 X62.982 Y22.715 E0.0071
G1 X9.429 Y22.715 E1.6030
G1 X9.209 Y22.623 E0.0071
G1 X6.697 Y20.111 E0.1063
G1 X6.606 Y19.891 E0.0071
G1 X7.006 Y19.811 F4200
G1 X7.006 Y-25.582 E1.3588 F1800
G1 X7.036 Y-25.656 E0.0024
G1 X9.436 Y-28.055 E0.1016
G1 X9.509 Y-28.085 E0.0024
G1 X62.902 Y-28.085 E1.5983
G1 X62.976 Y-28.055 E0.0024
G1 X65.375 Y-25.656 E0.1016
G1 X65.406 Y-25.582 E0.0024
G1 X65.406 Y19.811 E1.3588
G1 X65.375 Y19.885 E0.0024
G1 X62.976 Y22.284 E0.1016
G1 X62.902 Y22.315 E0.0024
G1 X9.509 Y22.315 E1.5983
G1 X9.436 Y22.284 E0.0024
G1 X7.036 Y19.885 E0.1016
G1 X7.006 Y19.811 E0.0024
G1 X-4.772 Y17.584 F4200
G1 X-4.776 Y17.593 E0.0003 F1800
G1 X-4.950 Y17.986 E0.0129
G1 X-4.955 Y17.995 E0.0003
G1 X-9.351 Y25.609 E0.2632
G1 X-9.357 Y25.618 E0.0003
G1 X-9.609 Y25.966 E0.0129
G1 X-9.616 Y25.974 E0.0003
G1 X-15.499 Y32.508 E0.2632
G1 X-15.506 Y32.515 E0.0003
G1 X-15.826 Y32.803 E0.0129
G1 X-15.834 Y32.809 E0.0003
G1 X-22.947 Y37.977 E0.2632
G1 X-22.956 Y37.983 E0.0003
G1 X-23.328 Y38.198 E0.0129
G1 X-23.337 Y38.202 E0.0003
G1 X-31.369 Y41.778 E0.2632
G1 X-31.379 Y41.782 E0.0003
G1 X-31.787 Y41.915 E0.0129
G1 X-31.798 Y41.918 E0.0003
G1 X-40.397 Y43.746 E0.2632
G1 X-40.408 Y43.747 E0.0003
G1 X-40.835 Y43.792 E0.0129
G1 X-40.846 Y43.793 E0.0003
G1 X-49.638 Y43.793 E0.2632
G1 X-49.648 Y43.792 E0.0003
G1 X-50.075 Y43.747 E0.0129
G1 X-50.086 Y43.746 E0.0003
G1 X-58.686 Y41.918 E0.2632
G1 X-58.696 Y41.915 E0.0003
G1 X-59.105 Y41.782 E0.0129
G1 X-59.114 Y41.778 E0.0003
G1 X-67.146 Y38.202 E0.2632
G1 X-67.156 Y38.198 E0.0003
G1 X-67.528 Y37.983 E0.0129
G1 X-67.537 Y37.977 E0.0003
G1 X-74.649 Y32.809 E0.2632
G1 X-74.657 Y32.803 E0.0003
G1 X-74.977 Y32.515 E0.0129
G1 X-74.984 Y32.508 E0.0003
G1 X-80.867 Y25.974 E0.2632
G1 X-80.874 Y25.966 E0.0003
G1 X-81.127 Y25.618 E0.0129
G1 X-81.132 Y25.609 E0.0003
G1 X-85.528 Y17.995 E0.2632
G1 X-85.533 Y17.986 E0.0003
G1 X-85.708 Y17.593 E0.0129
G1 X-85.711 Y17.584 E0.0003
G1 X-88.428 Y9.222 E0.2632
G1 X-88.431 Y9.212 E0.0003
G1 X-88.520 Y8.791 E0.0129
G1 X-88.522 Y8.781 E0.0003
G1 X-89.441 Y0.037 E0.2632
G1 X-89.442 Y0.027 E0.0003
G1 X-89.442 Y-0.403 E0.0129
G1 X-89.441 Y-0.414 E0.0003
G1 X-88.522 Y-9.157 E0.2632
G1 X-88.520 Y-9.168 E0.0003
G1 X-88.431 Y-9.588 E0.0129
G1 X-88.428 Y-9.598 E0.0003
G1 X-85.711 Y-17.960 E0.2632
G1 X-85.708 Y-17.970 E0.0003
G1 X-85.533 Y-18.362 E0.0129
G1 X-85.528 Y-18.372 E0.0003
G1 X-81.132 Y-25.986 E0.2632
G1 X-81.127 Y-25.994 E0.0003
G1 X-80.874 Y-26.342 E0.0129
G1 X-80.867 Y-26.350 E0.0003
G1 X-74.984 Y-32.884 E0.2632
G1 X-74.977 Y-32.891 E0.0003
G1 X-74.657 Y-33.179 E0.0129
G1 X-74.649 Y-33.186 E0.0003
G1 X-67.537 Y-38.353 E0.2632
G1 X-67.528 Y-38.359 E0.0003
G1 X-67.156 Y-38.574 E0.0129
G1 X-67.146 Y-38.579 E0.0003
G1 X-59.114 Y-42.155 E0.2632
G1 X-59.105 Y-42.159 E0.0003
G1 X-58.696 Y-42.291 E0.0129
G1 X-58.686 Y-42.294 E0.0003
G1 X-50.086 Y-44.122 E0.2632
G1 X-50.075 Y-44.124 E0.0003
G1 X-49.648 Y-44.169 E0.0129
G1 X-49.638 Y-44.169 E0.0003
G1 X-40.846 Y-44.169 E0.2632
G1 X-40.835 Y-44.169 E0.0003
G1 X-40.408 Y-44.124 E0.0129
G1 X-40.397 Y-44.122 E0.0003
G1 X-31.798 Y-42.294 E0.2632
G1 X-31.787 Y-42.291 E0.0003
G1 X-31.379 Y-42.159 E0.0129
G1 X-31.369 Y-42.155 E0.0003
G1 X-23.337 Y-38.579 E0.2632
G1 X-23.328 Y-38.574 E0.0003
G1 X-22.956 Y-38.359 E0.0129
G1 X-22.947 Y-38.353 E0.0003
G1 X-15.834 Y-33.186 E0.2632
G1 X-15.826 Y-33.179 E0.0003
G1 X-15.506 Y-32.891 E0.0129
G1 X-15.499 Y-32.884 E0.0003
G1 X-9.616 Y-26.350 E0.2632
G1 X-9.609 Y-26.342 E0.0003
G1 X-9.357 Y-25.994 E0.0129
G1 X-9.351 Y-25.986 E0.0003
G1 X-4.955 Y-18.372 E0.2632
G1 X-4.950 Y-18.362 E0.0003
G1 X-4.776 Y-17.970 E0.0129
G1 X-4.772 Y-17.960 E0.0003
G1 X-2.055 Y-9.598 E0.2632
G1 X-2.052 Y-9.588 E0.0003
G1 X-1.963 Y-9.168 E0.0129
G1 X-1.961 Y-9.157 E0.0003
G1 X-1.042 Y-0.414 E0.2632
G1 X-1.042 Y-0.403 E0.0003
G1 X-1.042 Y0.027 E0.0129
G1 X-1.042 Y0.037 E0.0003
G1 X-1.961 Y8.781 E0.2632
G1 X-1.963 Y8.791 E0.0003
G1 X-2.052 Y9.212 E0.0129
G1 X-2.055 Y9.222 E0.0003
G1 X-4.772 Y17.584 E0.2632
G1 E-1.0000 F1200
; inner perimeter
G1 X-9.251 Y15.836 F4200
G1 E1.0000 F1200
G1 X-13.369 Y22.969 E0.2465 F1350
G1 X-18.880 Y29.089 E0.2465
G1 X-25.543 Y33.930 E0.2465
G1 X-33.067 Y37.280 E0.2465
G1 X-41.124 Y38.993 E0.2465
G1 X-49.360 Y38.993 E0.2465
G1 X-57.416 Y37.280 E0.2465
G1 X-64.940 Y33.930 E0.2465
G1 X-71.603 Y29.089 E0.2465
G1 X-77.114 Y22.969 E0.2465
G1 X-81.232 Y15.836 E0.2465
G1 X-83.777 Y8.003 E0.2465
