; G-Code generated by Simplify3D(R) Version 4.0.1
; Jul 1, 2018 at 12:20:47 PM
; Settings Summary
;   processName,Process1
;   applyToModels,faceplate
;   profileName,Qidi Technology Qidi Tech I
;   profileVersion,2016-08-03 08:00:00
;   baseProfile,
;   printMaterial,PLA
;   printQuality,Medium
;   printExtruders,Right Extruder Only
;   extruderName,Right Extruder,Left Extruder
;   extruderToolheadNumber,0,1
;   extruderDiameter,0.4,0.4
;   extruderAutoWidth,0,0
;   extruderWidth,0.4,0.4
;   extrusionMultiplier,0.9,0.9
;   extruderUseRetract,1,1
;   extruderRetractionDistance,1,1
;   extruderExtraRestartDistance,0,0
;   extruderRetractionZLift,0,0
;   extruderRetractionSpeed,1200,1200
;   extruderUseCoasting,0,0
;   extruderCoastingDistance,0.2,0.2
;   extruderUseWipe,0,0
;   extruderWipeDistance,5,5
;   primaryExtruder,0
;   layerHeight,0.2
;   topSolidLayers,3
;   bottomSolidLayers,3
;   perimeterOutlines,2
;   printPerimetersInsideOut,1
;   startPointOption,2
;   startPointOriginX,0
;   startPointOriginY,0
;   sequentialIslands,0
;   spiralVaseMode,0
;   firstLayerHeightPercentage,90
;   firstLayerWidthPercentage,100
;   firstLayerUnderspeed,0.5
;   useRaft,0
;   raftExtruder,0
;   raftTopLayers,3
;   raftBaseLayers,2
;   raftOffset,3
;   raftSeparationDistance,0.14
;   raftTopInfill,100
;   aboveRaftSpeedMultiplier,0.3
;   useSkirt,1
;   skirtExtruder,0
;   skirtLayers,1
;   skirtOutlines,2
;   skirtOffset,4
;   usePrimePillar,0
;   primePillarExtruder,999
;   primePillarWidth,12
;   primePillarLocation,7
;   primePillarSpeedMultiplier,1
;   useOozeShield,0
;   oozeShieldExtruder,999
;   oozeShieldOffset,2
;   oozeShieldOutlines,1
;   oozeShieldSidewallShape,1
;   oozeShieldSidewallAngle,30
;   oozeShieldSpeedMultiplier,1
;   infillExtruder,0
;   internalInfillPattern,Rectilinear
;   externalInfillPattern,Rectilinear
;   infillPercentage,20
;   outlineOverlapPercentage,20
;   infillExtrusionWidthPercentage,100
;   minInfillLength,5
;   infillLayerInterval,1
;   internalInfillAngles,45,-45
;   overlapInternalInfillAngles,0
;   externalInfillAngles,45,-45
;   generateSupport,0
;   supportExtruder,0
;   supportInfillPercentage,30
;   supportExtraInflation,0
;   supportBaseLayers,0
;   denseSupportExtruder,0
;   denseSupportLayers,0
;   denseSupportInfillPercentage,70
;   supportLayerInterval,1
;   supportHorizontalPartOffset,0.3
;   supportUpperSeparationLayers,1
;   supportLowerSeparationLayers,1
;   supportType,0
;   supportGridSpacing,4
;   maxOverhangAngle,45
;   supportAngles,0
;   temperatureName,Right Extruder,Left Extruder,Heated Build Platform
;   temperatureNumber,0,1,0
;   temperatureSetpointCount,1,1,1
;   temperatureSetpointLayers,1,1,1
;   temperatureSetpointTemperatures,215,0,65
;   temperatureStabilizeAtStartup,0,0,0
;   temperatureHeatedBed,0,0,1
;   temperatureRelayBetweenLayers,0,0,0
;   temperatureRelayBetweenLoops,0,0,0
;   fanLayers,1,2
;   fanSpeeds,0,100
;   blipFanToFullPower,0
;   adjustSpeedForCooling,1
;   minSpeedLayerTime,15
;   minCoolingSpeedSlowdown,20
;   increaseFanForCooling,0
;   minFanLayerTime,45
;   maxCoolingFanSpeed,100
;   increaseFanForBridging,1
;   bridgingFanSpeed,100
;   use5D,1
;   relativeEdistances,1
;   allowEaxisZeroing,0
;   independentExtruderAxes,1
;   includeM10123,0
;   stickySupport,1
;   applyToolheadOffsets,0
;   gcodeXoffset,0
;   gcodeYoffset,0
;   gcodeZoffset,0
;   overrideMachineDefinition,1
;   machineTypeOverride,0
;   strokeXoverride,225
;   strokeYoverride,145
;   strokeZoverride,150
;   originOffsetXoverride,112.5
;   originOffsetYoverride,72.5
;   originOffsetZoverride,0
;   homeXdirOverride,1
;   homeYdirOverride,1
;   homeZdirOverride,-1
;   flipXoverride,1
;   flipYoverride,-1
;   flipZoverride,1
;   toolheadOffsets,0,0|34,0|0,0|0,0|0,0|0,0
;   overrideFirmwareConfiguration,1
;   firmwareTypeOverride,MakerBot/Sailfish Firmware
;   GPXconfigOverride,r1d
;   baudRateOverride,115200
;   overridePrinterModels,1
;   printerModelsOverride,MakerBot_Replicator1.stl
;   startingGcode,M73 P0 ; Enable build progress,G162 X Y F3000 ; Home XY maximum,G161 Z F1200 ; Home Z minimum,G92 X0 Y0 Z-5 A0 B0 ; Set Z to -5,G1 Z0 ; Move Z to 0,G161 Z F100 ; Home Z slowly,M132 X Y Z A B ; Recall home offsets,M135 T0 ; Load right extruder offsets,G1 X-110 Y-70 Z30 F9000 ; Move to wait position off table,G130 X20 Y20 Z20 A20 B20 ; Lower stepper Vrefs while heating,M126 S[fan_speed_pwm] ; Set fan speed,M140 S[bed0_temperature] T0 ; Heat buildplate ,M104 S[extruder0_temperature] T0 ; Heat right extruder,M134 T0 ; Stabilize bed temperature,M133 T0 ; Stabilize right extruder temperature,G130 X127 Y127 Z40 A127 B127 ; Default stepper Vrefs,G92 A0 B0 ; Zero extruders,G1 X100 Y-70 F9000 ; Move to front right corner of bed,G1 Z0.3 F6000 ; Move down to purge,G1 X-90 Y-70 E24 F2000 ; Extrude a line of filament across the front edge of the bed,G1 X-100 Y-70 F180 ; Wait for ooze,G1 X-110 Y-70 F5000 ; Fast wipe,G1 Z0.5 F100 ; Lift,M73 P1 ; @body (notify GPX body has started)
;   layerChangeGcode,
;   retractionGcode,
;   toolChangeGcode,
;   endingGcode,M73 P100 ; end build progress,G1 Z150 F1000 ; send Z axis to bottom of machine,M140 S0 T0 ; cool down HBP,M104 S0 T0 ; cool down right extruder,M104 S0 T1 ; cool down left extruder,M127 ; stop blower fan,G162 X Y F3000 ; home XY maximum,M18 ; disable stepper,M72 P1 ; play Ta-Da song
;   exportFileFormat,x3g
;   celebration,0
;   celebrationSong,Random Song
;   postProcessing,
;   defaultSpeed,3600
;   outlineUnderspeed,0.5
;   solidInfillUnderspeed,0.8
;   supportUnderspeed,0.8
;   rapidXYspeed,4200
;   rapidZspeed,1200
;   minBridgingArea,50
;   bridgingExtraInflation,0
;   bridgingExtrusionMultiplier,1
;   bridgingSpeedMultiplier,0.8
;   useFixedBridgingAngle,0
;   fixedBridgingAngle,0
;   applyBridgingToPerimeters,0
;   filamentDiameters,1.75|1.75|1.75|1.75|1.75|1.75
;   filamentPricesPerKg,46|46|46|46|46|46
;   filamentDensities,1.25|1.25|1.25|1.25|1.25|1.25
;   useMinPrintHeight,0
;   minPrintHeight,0
;   useMaxPrintHeight,0
;   maxPrintHeight,0
;   useDiaphragm,0
;   diaphragmLayerInterval,20
;   robustSlicing,1
;   mergeAllIntoSolid,0
;   onlyRetractWhenCrossingOutline,1
;   retractBetweenLayers,1
;   useRetractionMinTravel,0
;   retractionMinTravel,3
;   retractWhileWiping,0
;   onlyWipeOutlines,1
;   avoidCrossingOutline,0
;   maxMovementDetourFactor,3
;   toolChangeRetractionDistance,12
;   toolChangeExtraRestartDistance,-0.5
;   toolChangeRetractionSpeed,600
;   externalThinWallType,0
;   internalThinWallType,2
;   thinWallAllowedOverlapPercentage,10
;   singleExtrusionMinLength,1
;   singleExtrusionMinPrintingWidthPercentage,50
;   singleExtrusionMaxPrintingWidthPercentage,200
;   singleExtrusionEndpointExtension,0.2
;   horizontalSizeCompensation,0
G90
M83
M73 P0 ; Enable build progress
G162 X Y F3000 ; Home XY maximum
G161 Z F1200 ; Home Z minimum
G92 X0 Y0 Z-5 A0 B0 ; Set Z to -5
G1 Z0 ; Move Z to 0
G161 Z F100 ; Home Z slowly
M132 X Y Z A B ; Recall home offsets
M135 T0 ; Load right extruder offsets
G1 X-110 Y-70 Z30 F9000 ; Move to wait position off table
G130 X20 Y20 Z20 A20 B20 ; Lower stepper Vrefs while heating
M127 ; Set fan speed
M140 S65 T0 ; Heat buildplate 
M104 S215 T0 ; Heat right extruder
M134 T0 ; Stabilize bed temperature
M133 T0 ; Stabilize right extruder temperature
G130 X127 Y127 Z40 A127 B127 ; Default stepper Vrefs
G92 A0 B0 ; Zero extruders
G1 X100 Y-70 F9000 ; Move to front right corner of bed
G1 Z0.3 F6000 ; Move down to purge
G1 X-90 Y-70 E24 F2000 ; Extrude a line of filament across the front edge of the bed
G1 X-100 Y-70 F180 ; Wait for ooze
G1 X-110 Y-70 F5000 ; Fast wipe
G1 Z0.5 F100 ; Lift
M73 P1 ; @body (notify GPX body has started)
G1 E-1.0000 F1200
G1 Z0.180 F1200
; process Process1
; layer 1, Z = 0.180
M135 T0
; tool H0.200 W0.400
; skirt
G1 X29.651 Y-33.315 F4200
G1 E1.0000 F360
G1 X29.676 Y-33.295 E0.0009 F1800
G1 X30.011 Y-32.993 E0.0135
G1 X30.033 Y-32.971 E0.0009
G1 X35.930 Y-26.422 E0.2638
G1 X35.950 Y-26.398 E0.0009
G1 X36.215 Y-26.033 E0.0135
G1 X36.232 Y-26.007 E0.0009
G1 X40.638 Y-18.374 E0.2638
G1 X40.652 Y-18.346 E0.0009
G1 X40.836 Y-17.935 E0.0135
G1 X40.847 Y-17.905 E0.0009
G1 X43.570 Y-9.524 E0.2638
G1 X43.579 Y-9.493 E0.0009
G1 X43.672 Y-9.052 E0.0135
G1 X43.677 Y-9.021 E0.0009
G1 X44.598 Y-0.257 E0.2638
G1 X44.600 Y-0.225 E0.0009
G1 X44.600 Y0.225 E0.0135
G1 X44.598 Y0.257 E0.0009
G1 X43.677 Y9.021 E0.2638
G1 X43.672 Y9.052 E0.0009
G1 X43.579 Y9.493 E0.0135
G1 X43.570 Y9.524 E0.0009
G1 X40.847 Y17.905 E0.2638
G1 X40.836 Y17.935 E0.0009
G1 X40.652 Y18.346 E0.0135
G1 X40.638 Y18.374 E0.0009
G1 X36.232 Y26.007 E0.2638
G1 X36.215 Y26.033 E0.0009
G1 X35.950 Y26.398 E0.0135
G1 X35.930 Y26.422 E0.0009
G1 X30.033 Y32.971 E0.2638
G1 X30.011 Y32.993 E0.0009
G1 X29.676 Y33.295 E0.0135
G1 X29.651 Y33.315 E0.0009
G1 X22.522 Y38.495 E0.2638
G1 X22.495 Y38.512 E0.0009
G1 X22.105 Y38.737 E0.0135
G1 X22.077 Y38.752 E0.0009
G1 X14.026 Y42.336 E0.2638
G1 X13.996 Y42.348 E0.0009
G1 X13.568 Y42.487 E0.0135
G1 X13.537 Y42.495 E0.0009
G1 X4.917 Y44.327 E0.2638
G1 X4.886 Y44.332 E0.0009
G1 X4.438 Y44.379 E0.0135
G1 X4.406 Y44.381 E0.0009
G1 X-4.406 Y44.381 E0.2638
G1 X-4.438 Y44.379 E0.0009
G1 X-4.886 Y44.332 E0.0135
G1 X-4.917 Y44.327 E0.0009
G1 X-13.537 Y42.495 E0.2638
G1 X-13.568 Y42.487 E0.0009
G1 X-13.996 Y42.348 E0.0135
G1 X-14.026 Y42.336 E0.0009
G1 X-22.077 Y38.752 E0.2638
G1 X-22.105 Y38.737 E0.0009
G1 X-22.495 Y38.512 E0.0135
G1 X-22.522 Y38.495 E0.0009
G1 X-29.651 Y33.315 E0.2638
G1 X-29.676 Y33.295 E0.0009
G1 X-30.011 Y32.993 E0.0135
G1 X-30.033 Y32.971 E0.0009
G1 X-35.930 Y26.422 E0.2638
G1 X-35.950 Y26.398 E0.0009
G1 X-36.215 Y26.033 E0.0135
G1 X-36.232 Y26.007 E0.0009
G1 X-40.638 Y18.374 E0.2638
G1 X-40.652 Y18.346 E0.0009
G1 X-40.836 Y17.935 E0.0135
G1 X-40.847 Y17.905 E0.0009
G1 X-43.570 Y9.524 E0.2638
G1 X-43.579 Y9.493 E0.0009
G1 X-43.672 Y9.052 E0.0135
G1 X-43.677 Y9.021 E0.0009
G1 X-44.598 Y0.257 E0.2638
G1 X-44.600 Y0.225 E0.0009
G1 X-44.600 Y-0.225 E0.0135
G1 X-44.598 Y-0.257 E0.0009
G1 X-43.677 Y-9.021 E0.2638
G1 X-43.672 Y-9.052 E0.0009
G1 X-43.579 Y-9.493 E0.0135
G1 X-43.570 Y-9.524 E0.0009
G1 X-40.847 Y-17.905 E0.2638
G1 X-40.836 Y-17.935 E0.0009
G1 X-40.652 Y-18.346 E0.0135
G1 X-40.638 Y-18.374 E0.0009
G1 X-36.232 Y-26.007 E0.2638
G1 X-36.215 Y-26.033 E0.0009
G1 X-35.950 Y-26.398 E0.0135
G1 X-35.930 Y-26.422 E0.0009
G1 X-30.033 Y-32.971 E0.2638
G1 X-30.011 Y-32.993 E0.0009
G1 X-29.676 Y-33.295 E0.0135
G1 X-29.651 Y-33.315 E0.0009
G1 X-22.522 Y-38.495 E0.2638
G1 X-22.495 Y-38.512 E0.0009
G1 X-22.105 Y-38.737 E0.0135
G1 X-22.077 Y-38.752 E0.0009
G1 X-14.026 Y-42.336 E0.2638
G1 X-13.996 Y-42.348 E0.0009
G1 X-13.568 Y-42.487 E0.0135
G1 X-13.537 Y-42.495 E0.0009
G1 X-4.917 Y-44.327 E0.2638
G1 X-4.886 Y-44.332 E0.0009
G1 X-4.438 Y-44.379 E0.0135
G1 X-4.406 Y-44.381 E0.0009
G1 X4.406 Y-44.381 E0.2638
G1 X4.438 Y-44.379 E0.0009
G1 X4.886 Y-44.332 E0.0135
G1 X4.917 Y-44.327 E0.0009
G1 X13.537 Y-42.495 E0.2638
G1 X13.568 Y-42.487 E0.0009
G1 X13.996 Y-42.348 E0.0135
G1 X14.026 Y-42.336 E0.0009
G1 X22.077 Y-38.752 E0.2638
G1 X22.105 Y-38.737 E0.0009
G1 X22.495 Y-38.512 E0.0135
G1 X22.522 Y-38.495 E0.0009
G1 X29.651 Y-33.315 E0.2638
G1 X29.408 Y-32.997 F4200
G1 X29.416 Y-32.991 E0.0003 F1800
G1 X29.735 Y-32.703 E0.0129
G1 X29.743 Y-32.696 E0.0003
G1 X35.626 Y-26.162 E0.2632
G1 X35.632 Y-26.154 E0.0003
G1 X35.885 Y-25.806 E0.0129
G1 X35.891 Y-25.797 E0.0003
G1 X40.287 Y-18.183 E0.2632
G1 X40.291 Y-18.174 E0.0003
G1 X40.466 Y-17.782 E0.0129
G1 X40.470 Y-17.772 E0.0003
G1 X43.187 Y-9.410 E0.2632
G1 X43.189 Y-9.400 E0.0003
G1 X43.279 Y-8.980 E0.0129
G1 X43.280 Y-8.969 E0.0003
G1 X44.199 Y-0.225 E0.2632
G1 X44.200 Y-0.215 E0.0003
G1 X44.200 Y0.215 E0.0129
G1 X44.199 Y0.225 E0.0003
G1 X43.280 Y8.969 E0.2632
G1 X43.279 Y8.980 E0.0003
G1 X43.189 Y9.400 E0.0129
G1 X43.187 Y9.410 E0.0003
G1 X40.470 Y17.772 E0.2632
G1 X40.466 Y17.782 E0.0003
G1 X40.291 Y18.174 E0.0129
G1 X40.287 Y18.183 E0.0003
G1 X35.891 Y25.797 E0.2632
G1 X35.885 Y25.806 E0.0003
G1 X35.632 Y26.154 E0.0129
G1 X35.626 Y26.162 E0.0003
G1 X29.743 Y32.696 E0.2632
G1 X29.735 Y32.703 E0.0003
G1 X29.416 Y32.991 E0.0129
G1 X29.408 Y32.997 E0.0003
G1 X22.295 Y38.165 E0.2632
G1 X22.286 Y38.171 E0.0003
G1 X21.914 Y38.386 E0.0129
G1 X21.905 Y38.390 E0.0003
G1 X13.873 Y41.967 E0.2632
G1 X13.863 Y41.970 E0.0003
G1 X13.454 Y42.103 E0.0129
G1 X13.444 Y42.106 E0.0003
G1 X4.844 Y43.934 E0.2632
G1 X4.834 Y43.935 E0.0003
G1 X4.406 Y43.980 E0.0129
G1 X4.396 Y43.981 E0.0003
G1 X-4.396 Y43.981 E0.2632
G1 X-4.406 Y43.980 E0.0003
G1 X-4.834 Y43.935 E0.0129
G1 X-4.844 Y43.934 E0.0003
G1 X-13.444 Y42.106 E0.2632
G1 X-13.454 Y42.103 E0.0003
G1 X-13.863 Y41.970 E0.0129
G1 X-13.873 Y41.967 E0.0003
G1 X-21.905 Y38.390 E0.2632
G1 X-21.914 Y38.386 E0.0003
G1 X-22.286 Y38.171 E0.0129
G1 X-22.295 Y38.165 E0.0003
G1 X-29.408 Y32.997 E0.2632
G1 X-29.416 Y32.991 E0.0003
G1 X-29.735 Y32.703 E0.0129
G1 X-29.743 Y32.696 E0.0003
G1 X-35.626 Y26.162 E0.2632
G1 X-35.632 Y26.154 E0.0003
G1 X-35.885 Y25.806 E0.0129
G1 X-35.891 Y25.797 E0.0003
G1 X-40.287 Y18.183 E0.2632
G1 X-40.291 Y18.174 E0.0003
G1 X-40.466 Y17.782 E0.0129
G1 X-40.470 Y17.772 E0.0003
G1 X-43.187 Y9.410 E0.2632
G1 X-43.189 Y9.400 E0.0003
G1 X-43.279 Y8.980 E0.0129
G1 X-43.280 Y8.969 E0.0003
G1 X-44.199 Y0.225 E0.2632
G1 X-44.200 Y0.215 E0.0003
G1 X-44.200 Y-0.215 E0.0129
G1 X-44.199 Y-0.225 E0.0003
G1 X-43.280 Y-8.969 E0.2632
G1 X-43.279 Y-8.980 E0.0003
G1 X-43.189 Y-9.400 E0.0129
G1 X-43.187 Y-9.410 E0.0003
G1 X-40.470 Y-17.772 E0.2632
G1 X-40.466 Y-17.782 E0.0003
G1 X-40.291 Y-18.174 E0.0129
G1 X-40.287 Y-18.183 E0.0003
G1 X-35.891 Y-25.797 E0.2632
G1 X-35.885 Y-25.806 E0.0003
G1 X-35.632 Y-26.154 E0.0129
G1 X-35.626 Y-26.162 E0.0003
G1 X-29.743 Y-32.696 E0.2632
G1 X-29.735 Y-32.703 E0.0003
G1 X-29.416 Y-32.991 E0.0129
G1 X-29.408 Y-32.997 E0.0003
G1 X-22.295 Y-38.165 E0.2632
G1 X-22.286 Y-38.171 E0.0003
G1 X-21.914 Y-38.386 E0.0129
G1 X-21.905 Y-38.390 E0.0003
G1 X-13.873 Y-41.967 E0.2632
G1 X-13.863 Y-41.970 E0.0003
G1 X-13.454 Y-42.103 E0.0129
G1 X-13.444 Y-42.106 E0.0003
G1 X-4.844 Y-43.934 E0.2632
G1 X-4.834 Y-43.935 E0.0003
G1 X-4.406 Y-43.980 E0.0129
G1 X-4.396 Y-43.981 E0.0003
G1 X4.396 Y-43.981 E0.2632
G1 X4.406 Y-43.980 E0.0003
G1 X4.834 Y-43.935 E0.0129
G1 X4.844 Y-43.934 E0.0003
G1 X13.444 Y-42.106 E0.2632
G1 X13.454 Y-42.103 E0.0003
G1 X13.863 Y-41.970 E0.0129
G1 X13.873 Y-41.967 E0.0003
G1 X21.905 Y-38.390 E0.2632
G1 X21.914 Y-38.386 E0.0003
G1 X22.286 Y-38.171 E0.0129
G1 X22.295 Y-38.165 E0.0003
G1 X29.408 Y-32.997 E0.2632
G1 E-1.0000 F1200
; inner perimeter
G1 X26.361 Y-29.277 F4200
G1 E1.0000 F1200
G1 X31.873 Y-23.157 E0.2465 F1350
G1 X35.991 Y-16.024 E0.2465
G1 X38.536 Y-8.191 E0.2465
G1 X39.397 Y0.000 E0.2465
G1 X38.536 Y8.191 E0.2465
G1 X35.991 Y16.024 E0.2465
G1 X31.873 Y23.157 E0.2465
G1 X26.361 Y29.277 E0.2465
G1 X19.698 Y34.119 E0.2465
G1 X12.174 Y37.468 E0.2465
G1 X4.118 Y39.181 E0.2465
G1 X-4.118 Y39.181 E0.2465
G1 X-12.174 Y37.468 E0.2465
G1 X-19.698 Y34.119 E0.2465
G1 X-26.361 Y29.277 E0.2465
G1 X-31.873 Y23.157 E0.2465
G1 X-35.991 Y16.024 E0.2465
G1 X-38.536 Y8.191 E0.2465
G1 X-39.397 Y0.000 E0.2465
G1 X-38.536 Y-8.191 E0.2465
G1 X-35.991 Y-16.024 E0.2465
G1 X-31.873 Y-23.157 E0.2465
G1 X-26.361 Y-29.277 E0.2465
G1 X-19.698 Y-34.119 E0.2465
G1 X-12.174 Y-37.468 E0.2465
G1 X-4.118 Y-39.181 E0.2465
G1 X4.118 Y-39.181 E0.2465
G1 X12.174 Y-37.468 E0.2465
G1 X19.698 Y-34.119 E0.2465
G1 X26.361 Y-29.277 E0.2465
; outer perimeter
G1 X26.631 Y-29.576 F4200
G1 X32.198 Y-23.393 E0.2491 F900
G1 X36.358 Y-16.188 E0.2491
G1 X38.929 Y-8.275 E0.2491
G1 X39.799 Y0.000 E0.2491
G1 X38.929 Y8.275 E0.2491
G1 X36.358 Y16.188 E0.2491
G1 X32.198 Y23.393 E0.2491
G1 X26.631 Y29.576 E0.2491
G1 X19.899 Y34.467 E0.2491
G1 X12.299 Y37.851 E0.2491
G1 X4.160 Y39.581 E0.2491
G1 X-4.160 Y39.581 E0.2491
G1 X-12.299 Y37.851 E0.2491
G1 X-19.899 Y34.467 E0.2491
G1 X-26.631 Y29.576 E0.2491
G1 X-32.198 Y23.393 E0.2491
G1 X-36.358 Y16.188 E0.2491
G1 X-38.929 Y8.275 E0.2491
