; G-Code generated by Simplify3D(R) Version 4.0.1
; Jul 13, 2018 at 3:59:24 PM
; Settings Summary
;   processName,ProcessABS
;   applyToModels,faceplate
;   profileName,Qidi Technology Qidi Tech I
;   profileVersion,2016-08-03 08:00:00
;   baseProfile,
;   printMaterial,ABS
;   printQuality,High
;   printExtruders,Left Extruder Only
;   extruderName,Right Extruder,Left Extruder
;   extruderToolheadNumber,0,1
;   extruderDiameter,0.4,0.4
;   extruderAutoWidth,0,0
;   extruderWidth,0.4,0.4
;   extrusionMultiplier,1,1
;   extruderUseRetract,1,1
;   extruderRetractionDistance,1,1
;   extruderExtraRestartDistance,0,0
;   extruderRetractionZLift,0,0
;   extruderRetractionSpeed,1200,1200
;   extruderUseCoasting,0,0
;   extruderCoastingDistance,0.2,0.2
;   extruderUseWipe,0,0
;   extruderWipeDistance,5,5
;   primaryExtruder,1
;   layerHeight,0.1
;   topSolidLayers,4
;   bottomSolidLayers,4
;   perimeterOutlines,2
;   printPerimetersInsideOut,1
;   startPointOption,2
;   startPointOriginX,0
;   startPointOriginY,0
;   sequentialIslands,0
;   spiralVaseMode,0
;   firstLayerHeightPercentage,90
;   firstLayerWidthPercentage,100
;   firstLayerUnderspeed,0.5
;   useRaft,0
;   raftExtruder,1
;   raftTopLayers,3
;   raftBaseLayers,2
;   raftOffset,3
;   raftSeparationDistance,0.14
;   raftTopInfill,100
;   aboveRaftSpeedMultiplier,0.3
;   useSkirt,1
;   skirtExtruder,1
;   skirtLayers,2
;   skirtOutlines,4
;   skirtOffset,4
;   usePrimePillar,0
;   primePillarExtruder,999
;   primePillarWidth,12
;   primePillarLocation,7
;   primePillarSpeedMultiplier,1
;   useOozeShield,0
;   oozeShieldExtruder,999
;   oozeShieldOffset,2
;   oozeShieldOutlines,1
;   oozeShieldSidewallShape,1
;   oozeShieldSidewallAngle,30
;   oozeShieldSpeedMultiplier,1
;   infillExtruder,1
;   internalInfillPattern,Rectilinear
;   externalInfillPattern,Rectilinear
;   infillPercentage,30
;   outlineOverlapPercentage,20
;   infillExtrusionWidthPercentage,100
;   minInfillLength,5
;   infillLayerInterval,1
;   internalInfillAngles,45,-45
;   overlapInternalInfillAngles,0
;   externalInfillAngles,45,-45
;   generateSupport,0
;   supportExtruder,1
;   supportInfillPercentage,40
;   supportExtraInflation,0
;   supportBaseLayers,0
;   denseSupportExtruder,1
;   denseSupportLayers,0
;   denseSupportInfillPercentage,70
;   supportLayerInterval,1
;   supportHorizontalPartOffset,0.3
;   supportUpperSeparationLayers,1
;   supportLowerSeparationLayers,1
;   supportType,0
;   supportGridSpacing,4
;   maxOverhangAngle,45
;   supportAngles,0
;   temperatureName,Right Extruder,Left Extruder,Heated Build Platform
;   temperatureNumber,0,1,0
;   temperatureSetpointCount,1,2,1
;   temperatureSetpointLayers,1,1,4,1
;   temperatureSetpointTemperatures,0,240,230,110
;   temperatureStabilizeAtStartup,0,0,0
;   temperatureHeatedBed,0,0,1
;   temperatureRelayBetweenLayers,0,0,0
;   temperatureRelayBetweenLoops,0,0,0
;   fanLayers,1
;   fanSpeeds,0
;   blipFanToFullPower,0
;   adjustSpeedForCooling,1
;   minSpeedLayerTime,15
;   minCoolingSpeedSlowdown,20
;   increaseFanForCooling,0
;   minFanLayerTime,45
;   maxCoolingFanSpeed,100
;   increaseFanForBridging,1
;   bridgingFanSpeed,100
;   use5D,1
;   relativeEdistances,1
;   allowEaxisZeroing,0
;   independentExtruderAxes,1
;   includeM10123,0
;   stickySupport,1
;   applyToolheadOffsets,0
;   gcodeXoffset,0
;   gcodeYoffset,0
;   gcodeZoffset,0.05
;   overrideMachineDefinition,1
;   machineTypeOverride,0
;   strokeXoverride,225
;   strokeYoverride,145
;   strokeZoverride,150
;   originOffsetXoverride,112.5
;   originOffsetYoverride,72.5
;   originOffsetZoverride,0
;   homeXdirOverride,1
;   homeYdirOverride,1
;   homeZdirOverride,-1
;   flipXoverride,1
;   flipYoverride,-1
;   flipZoverride,1
;   toolheadOffsets,0,0|34,0|0,0|0,0|0,0|0,0
;   overrideFirmwareConfiguration,1
;   firmwareTypeOverride,MakerBot/Sailfish Firmware
;   GPXconfigOverride,r1d
;   baudRateOverride,115200
;   overridePrinterModels,1
;   printerModelsOverride,MakerBot_Replicator1.stl
;   startingGcode,M73 P0 ; Enable build progress,G162 X Y F3000 ; Home XY maximum,G161 Z F1200 ; Home Z minimum,G92 X0 Y0 Z-5 A0 B0 ; Set Z to -5,G1 Z0 ; Move Z to 0,G161 Z F100 ; Home Z slowly,M132 X Y Z ; Recall home offsets,M135 T0 ; Load right extruder offsets,G1 X-110 Y-70 Z30 F9000 ; Move to wait position off table,G130 X20 Y20 Z20 A20 B20 ; Lower stepper Vrefs while heating,M126 S[fan_speed_pwm] ; Set fan speed,M140 S[bed0_temperature] T0 ; Heat buildplate ,M104 S[extruder1_temperature] T1 ; Heat left extruder,M134 T0 ; Stabilize bed temperature,M133 T1 ; Stabilize left extruder temperature,G130 X127 Y127 Z40 A127 B127 ; Default stepper Vrefs,G92 A0 B0 ; Zero extruders,M135 T1 ; Load left extruder offsets,G1 X-100 Y-68 F9000 ; Move to front left corner of bed,G1 Z0.3 F6000 ; Move down to purge,G1 X90 Y-68 E24 F2000 ; Extrude a line of filament across the front edge of the bed,G1 X100 Y-68 F180 ; Wait for ooze,G1 X110 Y-68 F5000 ; Fast wipe,G1 Z1 F100 ; Lift,G92 A0 B0 ; Zero extruders,M73 P1 ; @body (notify GPX body has started)
;   layerChangeGcode,
;   retractionGcode,
;   toolChangeGcode,
;   endingGcode,M73 P100 ; end build progress,G1 Z150 F1000 ; send Z axis to bottom of machine,M140 S0 T0 ; cool down HBP,M104 S0 T0 ; cool down right extruder,M104 S0 T1 ; cool down left extruder,M127 ; stop blower fan,G162 X Y F3000 ; home XY maximum,M18 ; disable stepper,M72 P1 ; play Ta-Da song
;   exportFileFormat,x3g
;   celebration,0
;   celebrationSong,Random Song
;   postProcessing,
;   defaultSpeed,3600
;   outlineUnderspeed,0.5
;   solidInfillUnderspeed,0.8
;   supportUnderspeed,0.8
;   rapidXYspeed,4200
;   rapidZspeed,1200
;   minBridgingArea,50
;   bridgingExtraInflation,0
;   bridgingExtrusionMultiplier,1
;   bridgingSpeedMultiplier,0.8
;   useFixedBridgingAngle,0
;   fixedBridgingAngle,0
;   applyBridgingToPerimeters,0
;   filamentDiameters,1.75|1.75|1.75|1.75|1.75|1.75
;   filamentPricesPerKg,46|46|46|46|46|46
;   filamentDensities,1.25|1.25|1.25|1.25|1.25|1.25
;   useMinPrintHeight,0
;   minPrintHeight,0
;   useMaxPrintHeight,0
;   maxPrintHeight,0
;   useDiaphragm,0
;   diaphragmLayerInterval,20
;   robustSlicing,1
;   mergeAllIntoSolid,0
;   onlyRetractWhenCrossingOutline,1
;   retractBetweenLayers,1
;   useRetractionMinTravel,0
;   retractionMinTravel,3
;   retractWhileWiping,0
;   onlyWipeOutlines,1
;   avoidCrossingOutline,0
;   maxMovementDetourFactor,3
;   toolChangeRetractionDistance,12
;   toolChangeExtraRestartDistance,-0.5
;   toolChangeRetractionSpeed,600
;   externalThinWallType,0
;   internalThinWallType,2
;   thinWallAllowedOverlapPercentage,10
;   singleExtrusionMinLength,1
;   singleExtrusionMinPrintingWidthPercentage,50
;   singleExtrusionMaxPrintingWidthPercentage,200
;   singleExtrusionEndpointExtension,0.2
;   horizontalSizeCompensation,0
G90
M83
M73 P0 ; Enable build progress
G162 X Y F3000 ; Home XY maximum
G161 Z F1200 ; Home Z minimum
G92 X0 Y0 Z-5 A0 B0 ; Set Z to -5
G1 Z0 ; Move Z to 0
G161 Z F100 ; Home Z slowly
M132 X Y Z ; Recall home offsets
M135 T0 ; Load right extruder offsets
G1 X-110 Y-70 Z30 F9000 ; Move to wait position off table
G130 X20 Y20 Z20 A20 B20 ; Lower stepper Vrefs while heating
M127 ; Set fan speed
M140 S110 T0 ; Heat buildplate 
M104 S240 T1 ; Heat left extruder
M134 T0 ; Stabilize bed temperature
M133 T1 ; Stabilize left extruder temperature
G130 X127 Y127 Z40 A127 B127 ; Default stepper Vrefs
G92 A0 B0 ; Zero extruders
M135 T1 ; Load left extruder offsets
G1 X-100 Y-68 F9000 ; Move to front left corner of bed
G1 Z0.3 F6000 ; Move down to purge
G1 X90 Y-68 E24 F2000 ; Extrude a line of filament across the front edge of the bed
G1 X100 Y-68 F180 ; Wait for ooze
G1 X110 Y-68 F5000 ; Fast wipe
G1 Z1 F100 ; Lift
G92 A0 B0 ; Zero extruders
M73 P1 ; @body (notify GPX body has started)
G1 E-1.0000 F1200
G1 Z0.140 F1200
; process ProcessABS
; layer 1, Z = 0.090
M135 T1
; tool H0.100 W0.400
; skirt
G1 X30.138 Y-33.950 F4200
G1 E1.0000 F360
G1 X30.195 Y-33.904 E0.0012 F1800
G1 X30.561 Y-33.574 E0.0082
G1 X30.613 Y-33.522 E0.0012
G1 X36.538 Y-26.942 E0.1473
G1 X36.585 Y-26.885 E0.0012
G1 X36.874 Y-26.486 E0.0082
G1 X36.914 Y-26.425 E0.0012
G1 X41.341 Y-18.756 E0.1473
G1 X41.375 Y-18.691 E0.0012
G1 X41.575 Y-18.241 E0.0082
G1 X41.601 Y-18.172 E0.0012
G1 X44.338 Y-9.751 E0.1473
G1 X44.357 Y-9.680 E0.0012
G1 X44.459 Y-9.198 E0.0082
G1 X44.471 Y-9.126 E0.0012
G1 X45.396 Y-0.320 E0.1473
G1 X45.400 Y-0.246 E0.0012
G1 X45.400 Y0.246 E0.0082
G1 X45.396 Y0.320 E0.0012
G1 X44.471 Y9.126 E0.1473
G1 X44.459 Y9.198 E0.0012
G1 X44.357 Y9.680 E0.0082
G1 X44.338 Y9.751 E0.0012
G1 X41.601 Y18.172 E0.1473
G1 X41.575 Y18.241 E0.0012
G1 X41.375 Y18.691 E0.0082
G1 X41.341 Y18.756 E0.0012
G1 X36.914 Y26.425 E0.1473
G1 X36.874 Y26.486 E0.0012
G1 X36.585 Y26.885 E0.0082
G1 X36.538 Y26.942 E0.0012
G1 X30.613 Y33.522 E0.1473
G1 X30.561 Y33.574 E0.0012
G1 X30.195 Y33.904 E0.0082
G1 X30.138 Y33.950 E0.0012
G1 X22.975 Y39.154 E0.1473
G1 X22.913 Y39.194 E0.0012
G1 X22.487 Y39.441 E0.0082
G1 X22.421 Y39.474 E0.0012
G1 X14.332 Y43.076 E0.1473
G1 X14.264 Y43.102 E0.0012
G1 X13.795 Y43.254 E0.0082
G1 X13.724 Y43.273 E0.0012
G1 X5.063 Y45.114 E0.1473
G1 X4.990 Y45.126 E0.0012
G1 X4.501 Y45.177 E0.0082
G1 X4.427 Y45.181 E0.0012
G1 X-4.427 Y45.181 E0.1473
G1 X-4.501 Y45.177 E0.0012
G1 X-4.990 Y45.126 E0.0082
G1 X-5.063 Y45.114 E0.0012
G1 X-13.724 Y43.273 E0.1473
G1 X-13.795 Y43.254 E0.0012
G1 X-14.264 Y43.102 E0.0082
G1 X-14.332 Y43.076 E0.0012
G1 X-22.421 Y39.474 E0.1473
G1 X-22.487 Y39.441 E0.0012
G1 X-22.913 Y39.194 E0.0082
G1 X-22.975 Y39.154 E0.0012
G1 X-30.138 Y33.950 E0.1473
G1 X-30.195 Y33.904 E0.0012
G1 X-30.561 Y33.574 E0.0082
G1 X-30.613 Y33.522 E0.0012
G1 X-36.538 Y26.942 E0.1473
G1 X-36.585 Y26.885 E0.0012
G1 X-36.874 Y26.486 E0.0082
G1 X-36.914 Y26.425 E0.0012
G1 X-41.341 Y18.756 E0.1473
G1 X-41.375 Y18.691 E0.0012
G1 X-41.575 Y18.241 E0.0082
G1 X-41.601 Y18.172 E0.0012
G1 X-44.338 Y9.751 E0.1473
G1 X-44.357 Y9.680 E0.0012
G1 X-44.459 Y9.198 E0.0082
G1 X-44.471 Y9.126 E0.0012
G1 X-45.396 Y0.320 E0.1473
G1 X-45.400 Y0.246 E0.0012
G1 X-45.400 Y-0.246 E0.0082
G1 X-45.396 Y-0.320 E0.0012
G1 X-44.471 Y-9.126 E0.1473
G1 X-44.459 Y-9.198 E0.0012
G1 X-44.357 Y-9.680 E0.0082
G1 X-44.338 Y-9.751 E0.0012
G1 X-41.601 Y-18.172 E0.1473
G1 X-41.575 Y-18.241 E0.0012
G1 X-41.375 Y-18.691 E0.0082
G1 X-41.341 Y-18.756 E0.0012
G1 X-36.914 Y-26.425 E0.1473
G1 X-36.874 Y-26.486 E0.0012
G1 X-36.585 Y-26.885 E0.0082
G1 X-36.538 Y-26.942 E0.0012
G1 X-30.613 Y-33.522 E0.1473
G1 X-30.561 Y-33.574 E0.0012
G1 X-30.195 Y-33.904 E0.0082
G1 X-30.138 Y-33.950 E0.0012
G1 X-22.975 Y-39.154 E0.1473
G1 X-22.913 Y-39.194 E0.0012
G1 X-22.487 Y-39.441 E0.0082
G1 X-22.421 Y-39.474 E0.0012
G1 X-14.332 Y-43.076 E0.1473
G1 X-14.264 Y-43.102 E0.0012
G1 X-13.795 Y-43.254 E0.0082
G1 X-13.724 Y-43.273 E0.0012
G1 X-5.063 Y-45.114 E0.1473
G1 X-4.990 Y-45.126 E0.0012
G1 X-4.501 Y-45.177 E0.0082
G1 X-4.427 Y-45.181 E0.0012
G1 X4.427 Y-45.181 E0.1473
G1 X4.501 Y-45.177 E0.0012
G1 X4.990 Y-45.126 E0.0082
G1 X5.063 Y-45.114 E0.0012
G1 X13.724 Y-43.273 E0.1473
G1 X13.795 Y-43.254 E0.0012
G1 X14.264 Y-43.102 E0.0082
G1 X14.332 Y-43.076 E0.0012
G1 X22.421 Y-39.474 E0.1473
G1 X22.487 Y-39.441 E0.0012
G1 X22.913 Y-39.194 E0.0082
G1 X22.975 Y-39.154 E0.0012
G1 X30.138 Y-33.950 E0.1473
G1 X29.895 Y-33.632 F4200
G1 X29.936 Y-33.599 E0.0009 F1800
G1 X30.286 Y-33.284 E0.0078
G1 X30.323 Y-33.247 E0.0009
G1 X36.234 Y-26.682 E0.1469
G1 X36.267 Y-26.641 E0.0009
G1 X36.544 Y-26.260 E0.0078
G1 X36.573 Y-26.216 E0.0009
G1 X40.990 Y-18.565 E0.1469
G1 X41.014 Y-18.519 E0.0009
G1 X41.205 Y-18.088 E0.0078
G1 X41.224 Y-18.039 E0.0009
G1 X43.954 Y-9.637 E0.1469
G1 X43.968 Y-9.587 E0.0009
G1 X44.066 Y-9.125 E0.0078
G1 X44.074 Y-9.074 E0.0009
G1 X44.997 Y-0.288 E0.1469
G1 X45.000 Y-0.236 E0.0009
G1 X45.000 Y0.236 E0.0078
G1 X44.997 Y0.288 E0.0009
G1 X44.074 Y9.074 E0.1469
G1 X44.066 Y9.125 E0.0009
G1 X43.968 Y9.587 E0.0078
G1 X43.954 Y9.637 E0.0009
G1 X41.224 Y18.039 E0.1469
G1 X41.205 Y18.088 E0.0009
G1 X41.014 Y18.519 E0.0078
G1 X40.990 Y18.565 E0.0009
G1 X36.573 Y26.216 E0.1469
G1 X36.544 Y26.260 E0.0009
G1 X36.267 Y26.641 E0.0078
G1 X36.234 Y26.682 E0.0009
G1 X30.323 Y33.247 E0.1469
G1 X30.286 Y33.284 E0.0009
G1 X29.936 Y33.599 E0.0078
G1 X29.895 Y33.632 E0.0009
G1 X22.748 Y38.825 E0.1469
G1 X22.704 Y38.853 E0.0009
G1 X22.296 Y39.089 E0.0078
G1 X22.249 Y39.113 E0.0009
G1 X14.179 Y42.706 E0.1469
G1 X14.130 Y42.725 E0.0009
G1 X13.681 Y42.870 E0.0078
G1 X13.631 Y42.884 E0.0009
G1 X4.990 Y44.721 E0.1469
G1 X4.938 Y44.729 E0.0009
G1 X4.469 Y44.778 E0.0078
G1 X4.417 Y44.781 E0.0009
G1 X-4.417 Y44.781 E0.1469
G1 X-4.469 Y44.778 E0.0009
G1 X-4.938 Y44.729 E0.0078
G1 X-4.990 Y44.721 E0.0009
G1 X-13.631 Y42.884 E0.1469
G1 X-13.681 Y42.870 E0.0009
G1 X-14.130 Y42.725 E0.0078
G1 X-14.179 Y42.706 E0.0009
G1 X-22.249 Y39.113 E0.1469
G1 X-22.296 Y39.089 E0.0009
G1 X-22.704 Y38.853 E0.0078
G1 X-22.748 Y38.825 E0.0009
G1 X-29.895 Y33.632 E0.1469
G1 X-29.936 Y33.599 E0.0009
G1 X-30.286 Y33.284 E0.0078
G1 X-30.323 Y33.247 E0.0009
G1 X-36.234 Y26.682 E0.1469
G1 X-36.267 Y26.641 E0.0009
G1 X-36.544 Y26.260 E0.0078
G1 X-36.573 Y26.216 E0.0009
G1 X-40.990 Y18.565 E0.1469
G1 X-41.014 Y18.519 E0.0009
G1 X-41.205 Y18.088 E0.0078
G1 X-41.224 Y18.039 E0.0009
G1 X-43.954 Y9.637 E0.1469
G1 X-43.968 Y9.587 E0.0009
G1 X-44.066 Y9.125 E0.0078
G1 X-44.074 Y9.074 E0.0009
G1 X-44.997 Y0.288 E0.1469
G1 X-45.000 Y0.236 E0.0009
G1 X-45.000 Y-0.236 E0.0078
G1 X-44.997 Y-0.288 E0.0009
G1 X-44.074 Y-9.074 E0.1469
G1 X-44.066 Y-9.125 E0.0009
G1 X-43.968 Y-9.587 E0.0078
G1 X-43.954 Y-9.637 E0.0009
G1 X-41.224 Y-18.039 E0.1469
G1 X-41.205 Y-18.088 E0.0009
G1 X-41.014 Y-18.519 E0.0078
G1 X-40.990 Y-18.565 E0.0009
G1 X-36.573 Y-26.216 E0.1469
G1 X-36.544 Y-26.260 E0.0009
G1 X-36.267 Y-26.641 E0.0078
G1 X-36.234 Y-26.682 E0.0009
G1 X-30.323 Y-33.247 E0.1469
G1 X-30.286 Y-33.284 E0.0009
G1 X-29.936 Y-33.599 E0.0078
G1 X-29.895 Y-33.632 E0.0009
G1 X-22.748 Y-38.825 E0.1469
G1 X-22.704 Y-38.853 E0.0009
G1 X-22.296 Y-39.089 E0.0078
G1 X-22.249 Y-39.113 E0.0009
G1 X-14.179 Y-42.706 E0.1469
G1 X-14.130 Y-42.725 E0.0009
G1 X-13.681 Y-42.870 E0.0078
G1 X-13.631 Y-42.884 E0.0009
G1 X-4.990 Y-44.721 E0.1469
G1 X-4.938 Y-44.729 E0.0009
G1 X-4.469 Y-44.778 E0.0078
G1 X-4.417 Y-44.781 E0.0009
G1 X4.417 Y-44.781 E0.1469
G1 X4.469 Y-44.778 E0.0009
G1 X4.938 Y-44.729 E0.0078
G1 X4.990 Y-44.721 E0.0009
G1 X13.631 Y-42.884 E0.1469
G1 X13.681 Y-42.870 E0.0009
G1 X14.130 Y-42.725 E0.0078
G1 X14.179 Y-42.706 E0.0009
G1 X22.249 Y-39.113 E0.1469
G1 X22.296 Y-39.089 E0.0009
G1 X22.704 Y-38.853 E0.0078
G1 X22.748 Y-38.825 E0.0009
G1 X29.895 Y-33.632 E0.1469
G1 X29.651 Y-33.315 F4200
G1 X29.676 Y-33.295 E0.0005 F1800
G1 X30.011 Y-32.993 E0.0075
G1 X30.033 Y-32.971 E0.0005
G1 X35.930 Y-26.422 E0.1466
G1 X35.950 Y-26.398 E0.0005
G1 X36.215 Y-26.033 E0.0075
G1 X36.232 Y-26.007 E0.0005
G1 X40.638 Y-18.374 E0.1466
G1 X40.652 Y-18.346 E0.0005
G1 X40.836 Y-17.935 E0.0075
G1 X40.847 Y-17.905 E0.0005
G1 X43.570 Y-9.524 E0.1466
G1 X43.579 Y-9.493 E0.0005
G1 X43.672 Y-9.052 E0.0075
G1 X43.677 Y-9.021 E0.0005
G1 X44.598 Y-0.257 E0.1466
G1 X44.600 Y-0.225 E0.0005
G1 X44.600 Y0.225 E0.0075
G1 X44.598 Y0.257 E0.0005
G1 X43.677 Y9.021 E0.1466
G1 X43.672 Y9.052 E0.0005
G1 X43.579 Y9.493 E0.0075
G1 X43.570 Y9.524 E0.0005
G1 X40.847 Y17.905 E0.1466
G1 X40.836 Y17.935 E0.0005
G1 X40.652 Y18.346 E0.0075
G1 X40.638 Y18.374 E0.0005
G1 X36.232 Y26.007 E0.1466
G1 X36.215 Y26.033 E0.0005
G1 X35.950 Y26.398 E0.0075
G1 X35.930 Y26.422 E0.0005
G1 X30.033 Y32.971 E0.1466
G1 X30.011 Y32.993 E0.0005
G1 X29.676 Y33.295 E0.0075
G1 X29.651 Y33.315 E0.0005
G1 X22.522 Y38.495 E0.1466
G1 X22.495 Y38.512 E0.0005
G1 X22.105 Y38.737 E0.0075
G1 X22.077 Y38.752 E0.0005
G1 X14.026 Y42.336 E0.1466
G1 X13.996 Y42.348 E0.0005
G1 X13.568 Y42.487 E0.0075
G1 X13.537 Y42.495 E0.0005
G1 X4.917 Y44.327 E0.1466
G1 X4.886 Y44.332 E0.0005
G1 X4.438 Y44.379 E0.0075
G1 X4.406 Y44.381 E0.0005
G1 X-4.406 Y44.381 E0.1466
